!!!!SEGMENT: pl-cz--iii-112--001-005_dankowski-adalbert--vesperae-d-nunc-dimittis-magnificat.krn
!!!cenid: 18xx:802
!!!COM: Dankowski, Adalbert
!!!COM-rismID: pe30000793
!!!CDT: ~1760-~1836
!!!CNT: Polish
!!!OPR: Vesperae D
!!!OTL: Nunc dimittis-Magnificat
!!!OMV: 005
!!!PDT:
!!!AGN: Sacred; Vespers
!!!YEC: Copyright 2022 Narodowy Instytut Fryderyka Chopina (https://polishscores.org)
!!!YEM: License CC-BY-4.0 (https://creativecommons.org/licenses/by/4.0)
!!!SMS-siglum: PL-CZ
!!!SMS-shelfmark: III-112
!!!SMS-shelfwork: 001-005 M
!!!SMS-variant:
!!!SMS-altvar:
!!!NIFC-rismSourceID: 300033579
!!!NIFC-rismChildID: 300033579
!!!NIFC-islandoraID: pl-cz:34440
!!!URL-pdf-islandora: https://repozytorium.nifc.pl/islandora/object/pl-cz%3A34440/datastream/PDF/view
!!!URL-scan: https://polish.musicsources.pl/pl/lokalizacje/galeria/rekopisy/6829/1 @EN{Scan on Polish Music Sources Website} @PL{Skany w portalu Dziedzictwo Muzyki Polskiej w otwartym dostępie}
!!!IIIF:
!!!ONB-nifc: UWAGA: części Vesperae: Dixit Dominus, Tecum principium, Dominus, Gloria patri, Nunc dimittis – Magnificat, Et misericordia, Gloria patri
!!!AIN: 1 alto 1 bass 1 organ 1 soprn 1 tenor 2 tromp 2 violn
!!!key: D
**kern	**fba	**dynam	**kern	**dynam	**kern	**dynam	**kern	**text	**text	**text	**kern	**text	**text	**text	**kern	**text	**text	**text	**kern	**text	**text	**text	**kern	**kern
*	*	*	*group3	*	*group3	*	*group2	*	*	*	*group2	*	*	*	*group2	*	*	*	*group2	*	*	*	*group1	*group1
*part9	*	*	*part8	*	*part7	*	*part6	*	*	*	*part5	*	*	*	*part4	*	*	*	*part3	*	*	*	*part2	*part1
*staff9	*	*	*staff8	*	*staff7	*	*staff6	*	*	*	*staff5	*	*	*	*staff4	*	*	*	*staff3	*	*	*	*staff2	*staff1
*I"Organo	*	*	*I"Violino Secondo	*	*I"Violino Primo	*	*I"Baſso	*	*	*	*I"Tenore	*	*	*	*I"Alto	*	*	*	*I"Canto	*	*	*	*I"Clarino Secondo	*I"Clarino Primo Ex D:
*I'org	*	*	*I'vl 2	*	*I'vl 1	*	*I'B	*	*	*	*I'T	*	*	*	*I'A	*	*	*	*I'S	*	*	*	*I'clno 2	*I'clno 1 in D
*Iorgan	*	*	*Ivioln	*	*Ivioln	*	*Ibass	*	*	*	*Itenor	*	*	*	*Ialto	*	*	*	*Isoprn	*	*	*	*Itromp	*Itromp
*ICklav	*	*	*ICstr	*	*ICstr	*	*ICvox	*	*	*	*ICvox	*	*	*	*ICvox	*	*	*	*ICvox	*	*	*	*ICbras	*ICbras
*IGcont	*	*	*	*	*	*	*IGcoro	*	*	*	*IGcoro	*	*	*	*IGcoro	*	*	*	*IGcoro	*	*	*	*	*
*clefF4	*	*	*clefG2	*	*clefG2	*	*clefF4	*	*	*	*clefC4	*	*	*	*clefC3	*	*	*	*clefC1	*	*	*	*clefG2	*clefG2
*	*	*	*	*	*	*	*	*	*	*	*	*	*	*	*	*	*	*	*	*	*	*	*ITrd-1c-2	*ITrd-1c-2
*k[f#c#]	*	*	*k[f#c#]	*	*k[f#c#]	*	*k[f#c#]	*	*	*	*k[c#f#]	*	*	*	*k[f#c#]	*	*	*	*k[f#c#]	*	*	*	*k[f#c#]	*k[f#c#]
*D:	*	*	*D:	*	*D:	*	*D:	*	*	*	*D:	*	*	*	*D:	*	*	*	*D:	*	*	*	*D:	*D:
*M4/4	*	*	*M4/4	*	*M4/4	*	*M4/4	*	*	*	*M4/4	*	*	*	*M4/4	*	*	*	*M4/4	*	*	*	*M4/4	*M4/4
*met(C.)	*	*	*met(C.)	*	*met(C.)	*	*met(C.)	*	*	*	*met(C.)	*	*	*	*met(C.)	*	*	*	*met(C.)	*	*	*	*met(C.)	*met(C.)
=1	=1	=1	=1	=1	=1	=1	=1	=1	=1	=1	=1	=1	=1	=1	=1	=1	=1	=1	=1	=1	=1	=1	=1	=1
!	!	!	!	!	!	!	!	!	!	!	!	!	!	!	!	!	!	!	!LO:TX:a:t=P:problem=znaki f# cc#	!	!	!	!	!
!LO:TX:a:t=allo tutti	!	!	!LO:TX:a:t=allo&colon;	!LO:DY:t=f&colon;	!LO:TX:a:t=allo	!LO:DY:t=for	!LO:TX:a:t=allo&colon;	!	!	!	!LO:TX:a:t=allo&colon;	!	!	!	!LO:TX:a:t=allo&colon;	!	!	!	!LO:TX:a:t=allo	!	!	!	!LO:TX:a:t=allo	!LO:TX:a:t=allo&colon;
8d\L	.	.	8a/L	f	8ff# 8a 8d\	f	8d\L	Nunc	Ma-	.	8A\L	Nunc	Ma-	.	4f#\	Nunc	Ma-	.	4dd\	Nunc	Ma-	.	4dd\	4ff#\
8B\	.	.	8f#/	.	4dd\	.	8B\J	.	.	.	8B\J	.	.	.	.	.	.	.	.	.	.	.	.	.
8G\	6 5	.	8e/	.	.	.	8G\	di-	-gni-	.	8B\	di-	-gni-	.	8e\	di-	-gni-	.	8dd\	di-	-gni-	.	8dd\L	4ee\
!	!	!	!	!	!	!	!	!LO:MO:mod=-mit-	!	!	!	!LO:MO:mod=-mit-	!	!	!	!LO:MO:mod=-mit-	!	!	!	!LO:MO:mod=-mit-	!	!	!	!
8A\J	.	.	8e/J	.	8cc#\	.	8A\	-mi-	-fi-	.	8A\	-mi-	-fi-	.	8e\	-mi-	-fi-	.	8cc#\	-mi-	-fi-	.	8a\J	.
!	!	!	!	!	!LO:TX:a:t=P:problem=mixed beam	!	!	!	!	!	!	!	!	!	!	!	!	!	!	!	!	!	!	!
4D\	.	.	16f#/LL	.	16dd\LL	.	4D\	-tis	-cat	.	4A\	-tis	-cat	.	4f#\	-tis	-cat	.	4dd\	-tis	-cat	.	4f#/	4dd\
.	.	.	16d/	.	16f#/	.	.	.	.	.	.	.	.	.	.	.	.	.	.	.	.	.	.	.
.	.	.	16e/	.	16g/	.	.	.	.	.	.	.	.	.	.	.	.	.	.	.	.	.	.	.
.	.	.	16f#/JJ	.	16a/JJ	.	.	.	.	.	.	.	.	.	.	.	.	.	.	.	.	.	.	.
4r	.	.	16g/LL	.	16b\LL	.	4r	.	.	.	4r	.	.	.	4r	.	.	.	4r	.	.	.	4r	4r
.	.	.	16a/	.	16cc#\	.	.	.	.	.	.	.	.	.	.	.	.	.	.	.	.	.	.	.
.	.	.	16b/	.	16dd\	.	.	.	.	.	.	.	.	.	.	.	.	.	.	.	.	.	.	.
.	.	.	16cc#/JJ	.	16ee\JJ	.	.	.	.	.	.	.	.	.	.	.	.	.	.	.	.	.	.	.
=2	=2	=2	=2	=2	=2	=2	=2	=2	=2	=2	=2	=2	=2	=2	=2	=2	=2	=2	=2	=2	=2	=2	=2	=2
*	*	*	*	*	*	*	*	*	*ij	*	*	*	*ij	*	*	*	*ij	*	*	*	*ij	*	*	*
8D\L	.	.	8dd\	.	8ff#\L	.	8d\L	Ser-	Ma-	.	8A\L	Ser-	Ma-	.	4f#\	ser-	Ma-	.	4dd\	ser-	Ma-	.	4dd\	4ff#\
8B\	.	.	4dd\	.	8ff#\J	.	8B\J	.	.	.	8B\J	.	.	.	.	.	.	.	.	.	.	.	.	.
8G\	6 5	.	.	.	8.ee\L	.	8G\	-vum	-gni-	.	8B\	-vum	-gni-	.	8e\	-vum	-gni-	.	8dd\	-vum	-gni-	.	8dd\L	4ee\
8A\J	.	.	8cc#\	.	.	.	8A\	tu-	-fi-	.	8A\	tu-	-fi-	.	8e\	tu-	-fi-	.	8cc#\	tu-	-fi-	.	8a\J	.
.	.	.	.	.	32dd\LL	.	.	.	.	.	.	.	.	.	.	.	.	.	.	.	.	.	.	.
.	.	.	.	.	32ee\JJJ	.	.	.	.	.	.	.	.	.	.	.	.	.	.	.	.	.	.	.
!	!	!	!LO:TX:a:t=P:problem=mixed beam	!	!	!	!	!	!	!	!	!	!	!	!	!	!	!	!	!	!	!	!	!
4D\	.	.	16dd\LL	.	16ff#\LL	.	4D\	-um	-cat	.	4A\	-um	-cat	.	4f#\	-um	-cat	.	4dd\	-um	-cat	.	4f#/	4dd\
.	.	.	16f#/	.	16dd\	.	.	.	.	.	.	.	.	.	.	.	.	.	.	.	.	.	.	.
.	.	.	16g/	.	16ee\	.	.	.	.	.	.	.	.	.	.	.	.	.	.	.	.	.	.	.
.	.	.	16a/JJ	.	16ff#\JJ	.	.	.	.	.	.	.	.	.	.	.	.	.	.	.	.	.	.	.
4r	.	.	16b\LL	.	16gg\LL	.	4r	.	.	.	4r	.	.	.	4r	.	.	.	4r	.	.	.	4r	4r
.	.	.	16cc#\	.	16aa\	.	.	.	.	.	.	.	.	.	.	.	.	.	.	.	.	.	.	.
.	.	.	16dd\	.	16bb\	.	.	.	.	.	.	.	.	.	.	.	.	.	.	.	.	.	.	.
.	.	.	16ee\JJ	.	16ccc#\JJ	.	.	.	.	.	.	.	.	.	.	.	.	.	.	.	.	.	.	.
!	!	!	!LO:LB:g=original	!	!LO:LB:g=original	!	!	!	!	!	!	!	!	!	!	!	!	!	!	!	!	!	!	!
=3	=3	=3	=3	=3	=3	=3	=3	=3	=3	=3	=3	=3	=3	=3	=3	=3	=3	=3	=3	=3	=3	=3	=3	=3
*	*	*	*	*	*	*	*	*	*	*	*	*	*	*	*	*	*	*	*	*	*	*	*	*2\right
8D\L	.	.	8ff#\L	.	8ddd\L	.	8D\	nunc	Ma-	.	8d\	Do-	Ma-	.	8a\	Do-	Ma-	.	8ff#\	nunc	Ma-	.	2d/	2dd\
8D\	.	.	8ff#\	.	32aa\LL	.	8D\	di-	-gni-	.	8d\	-mi-	-gni-	.	8a\	-mi-	-gni-	.	8ff#\	di-	-gni-	.	.	.
.	.	.	.	.	32bb\	.	.	.	.	.	.	.	.	.	.	.	.	.	.	.	.	.	.	.
.	.	.	.	.	32aa\	.	.	.	.	.	.	.	.	.	.	.	.	.	.	.	.	.	.	.
.	.	.	.	.	32gg\JJJ	.	.	.	.	.	.	.	.	.	.	.	.	.	.	.	.	.	.	.
!	!	!	!	!	!	!	!	!LO:MO:mod=-mit-	!	!	!	!	!	!	!	!	!	!	!	!LO:MO:mod=-mit-	!	!	!	!
8D\	.	.	8ff#\	.	16aa\LL	.	8D\	-mi-	-fi-	.	8d\	-ne	-fi-	.	8a\	-ne	-fi-	.	8ff#\	-mi-	-fi-	.	.	.
.	.	.	.	.	16bb\	.	.	.	.	.	.	.	.	.	.	.	.	.	.	.	.	.	.	.
8D\J	.	.	8ff#\J	.	16ccc#\	.	8D\	-tis	-cat	.	8d\	se-	-cat	.	8a\	se-	-cat	.	8ff#\	-tis	-cat	.	.	.
*	*	*	*	*	*	*	*	*	*Xij	*	*	*	*Xij	*	*	*	*Xij	*	*	*	*Xij	*	*	*
.	.	.	.	.	16ddd\JJ	.	.	.	.	.	.	.	.	.	.	.	.	.	.	.	.	.	.	.
!	!	!	!	!	!	!	!LO:LB:g=original	!	!	!	!LO:LB:g=original	!	!	!	!LO:LB:g=original	!	!	!	!LO:LB:g=original	!	!	!	!	!
8D\L	6_ 4_	.	8.gg\L	.	8.bb\L	.	4D\	ser-	a-	.	4d\	-cun-	a-	.	4b\	-cun-	a-	.	4gg\	ser-	a-	.	2d/	2dd\
8D\	.	.	.	.	.	.	.	.	.	.	.	.	.	.	.	.	.	.	.	.	.	.	.	.
.	.	.	32ff#\LL	.	32aa\LL	.	.	.	.	.	.	.	.	.	.	.	.	.	.	.	.	.	.	.
.	.	.	32gg\JJJ	.	32bb\JJJ	.	.	.	.	.	.	.	.	.	.	.	.	.	.	.	.	.	.	.
8D\	5 3	.	8ff#\L	.	16aa\LL	.	8D\	-vum	-ni-	.	8d\	.	-ni-	.	8a\	-dum	-ni-	.	8ff#\	.	-ni-	.	.	.
.	.	.	.	.	16ddd\	.	.	.	.	.	.	.	.	.	.	.	.	.	.	.	.	.	.	.
8D\J	.	.	8ff#\J	.	16ff#\	.	8D\	ser-	-ma	.	8A\	-dum	-ma	.	8a\	ver-	-ma	.	8ff#\	-vum	-ma	.	.	.
.	.	.	.	.	16aa\JJ	.	.	.	.	.	.	.	.	.	.	.	.	.	.	.	.	.	.	.
=4	=4	=4	=4	=4	=4	=4	=4	=4	=4	=4	=4	=4	=4	=4	=4	=4	=4	=4	=4	=4	=4	=4	=4	=4
!LO:TX:a:t=P:problem=mixed beam	!	!	!	!	!	!	!	!	!	!	!	!	!	!	!	!	!	!	!	!	!	!	!	!
8C#/L	6 5	.	8ee\L	.	16aa\LL	.	4C#/	.	me-	.	4A\	ver-	me-	.	4g\	.	me-	.	4ee\	tu-	me-	.	4a/	4ee\
.	.	.	.	.	16gg\	.	.	.	.	.	.	.	.	.	.	.	.	.	.	.	.	.	.	.
8AA/	.	.	8cc#\J	.	16ee\	.	.	.	.	.	.	.	.	.	.	.	.	.	.	.	.	.	.	.
.	.	.	.	.	16gg\JJ	.	.	.	.	.	.	.	.	.	.	.	.	.	.	.	.	.	.	.
8D/	.	.	8dd\L	.	16gg\LL	.	4D\	-vum	-a	.	4A\	-bum	-a	.	4f#\	-bum	-a	.	4dd\	-um	-a	.	4dd\	4ff#\
.	.	.	.	.	16ff#\	.	.	.	.	.	.	.	.	.	.	.	.	.	.	.	.	.	.	.
8d\J	.	.	16ff#\L	.	16aa\	.	.	.	.	.	.	.	.	.	.	.	.	.	.	.	.	.	.	.
.	.	.	16dd\JJ	.	16ff#\JJ	.	.	.	.	.	.	.	.	.	.	.	.	.	.	.	.	.	.	.
!LO:LB:g=original	!	!	!	!	!	!	!	!	!	!	!	!	!	!	!	!	!	!	!	!	!	!	!	!
!LO:TX:a:t=P:problem=mixed beam	!	!	!	!	!LO:TUP:a:problem=klamra łukowa	!	!	!	!	!	!	!	!	!	!	!	!	!	!	!	!	!	!	!
8A/L	4	.	8dd\L	.	24ff#\LL	.	16A\	tu-	Do-	.	16A\	tu-	Do-	.	16f#\	tu-	Do-	.	16cc#\	Do-	Do-	.	8dd\L	8ff#\L
.	.	.	.	.	24ee\	.	.	.	.	.	.	.	.	.	.	.	.	.	.	.	.	.	.	.
.	.	.	.	.	.	.	16A\	.	-mi-	.	16A\	.	-mi-	.	16f#\	.	-mi-	.	16dd\	-mi-	-mi-	.	.	.
.	.	.	.	.	24ff#\J	.	.	.	.	.	.	.	.	.	.	.	.	.	.	.	.	.	.	.
8AA/	3	.	8cc#\	.	8ee\J	.	8AA/	-um	-num	.	8A\	-um	-num	.	8e\	-um	-num	.	8cc#\	-ne	-num	.	8a\J	8ee\J
8A\J	.	.	8cc#\J	.	8r	.	4r	.	.	.	4r	.	.	.	4r	.	.	.	8r	.	.	.	4r	4r
8r	.	.	8r	.	16gg\LL	.	.	.	.	.	.	.	.	.	.	.	.	.	16gg\LL	Se-	&	.	.	.
.	.	.	.	.	16ee\JJ	.	.	.	.	.	.	.	.	.	.	.	.	.	16ee\JJ	.	.	.	.	.
!	!	!	!	!	!LO:PB:g=original	!	!	!	!	!	!	!	!	!	!	!	!	!	!	!	!	!	!	!
=5	=5	=5	=5	=5	=5	=5	=5	=5	=5	=5	=5	=5	=5	=5	=5	=5	=5	=5	=5	=5	=5	=5	=5	=5
!	!	!LO:DY:t=pio&colon;	!	!LO:DY:t=p&colon;	!	!LO:DY:t=p&colon;	!	!	!	!	!	!	!	!	!	!	!	!	!LO:TX:a:t=ſolo&colon;	!	!	!	!LO:TX:a:t=4	!
8r	.	p	8r	p	4.cc#\	p	00r	.	.	.	00r	.	.	.	00r	.	.	.	4.cc#\	-cun-	ex-	.	00r	00r
!LO:TX:a:t=P:problem=mixed beam	!	!	!	!	!	!	!	!	!	!	!	!	!	!	!	!	!	!	!	!	!	!	!	!
8AA\L	3_	.	8e/L	.	.	.	.	.	.	.	.	.	.	.	.	.	.	.	.	.	.	.	.	.
8A\	.	.	8e/	.	.	.	.	.	.	.	.	.	.	.	.	.	.	.	.	.	.	.	.	.
8G\J	X	.	8e/J	.	16b\LL	.	.	.	.	.	.	.	.	.	.	.	.	.	16b\LL	-dum	-ul-	.	.	.
.	.	.	.	.	16cc#\JJ	.	.	.	.	.	.	.	.	.	.	.	.	.	16cc#\JJ	.	.	.	.	.
8F#\L	6_	.	8f#/L	.	16cc#\LL	.	.	.	.	.	.	.	.	.	.	.	.	.	16cc#\LL	ver-	-ta-	.	.	.
.	.	.	.	.	16dd\JJ	.	.	.	.	.	.	.	.	.	.	.	.	.	16dd\JJ	.	.	.	.	.
16F#\L	.	.	8a/	.	4dd\	.	.	.	.	.	.	.	.	.	.	.	.	.	4dd\	.	-vit	.	.	.
16E\JJ	.	.	.	.	.	.	.	.	.	.	.	.	.	.	.	.	.	.	.	.	.	.	.	.
8F#\L	.	.	8a/	.	.	.	.	.	.	.	.	.	.	.	.	.	.	.	.	.	.	.	.	.
8F#\J	X	.	8a/J	.	16ff#\LL	.	.	.	.	.	.	.	.	.	.	.	.	.	16ff#\LL	-bum	Spi-	.	.	.
.	.	.	.	.	16dd\JJ	.	.	.	.	.	.	.	.	.	.	.	.	.	16dd\JJ	.	.	.	.	.
!	!	!	!LO:LB:g=original	!	!	!	!	!	!	!	!	!	!	!	!	!	!	!	!LO:LB:g=original	!	!	!	!	!
=6	=6	=6	=6	=6	=6	=6	=6	=6	=6	=6	=6	=6	=6	=6	=6	=6	=6	=6	=6	=6	=6	=6	=6	=6
*	*	*	*	*	*Xtuplet	*	*	*	*	*	*	*	*	*	*	*	*	*	*	*	*	*	*	*
8G\L	4 2	.	8a/L	.	24cc#\LL	.	.	.	.	.	.	.	.	.	.	.	.	.	8cc#\L	tu-	.	.	.	.
.	.	.	.	.	24b\	.	.	.	.	.	.	.	.	.	.	.	.	.	.	.	.	.	.	.
.	.	.	.	.	24cc#\JJ	.	.	.	.	.	.	.	.	.	.	.	.	.	.	.	.	.	.	.
8F#\	6	.	8a/	.	16dd\LL	.	.	.	.	.	.	.	.	.	.	.	.	.	8dd\J	.	.	.	.	.
.	.	.	.	.	16ff#\JJ	.	.	.	.	.	.	.	.	.	.	.	.	.	.	.	.	.	.	.
8C#\	6 5	.	8a/	.	16gg\LL	.	.	.	.	.	.	.	.	.	.	.	.	.	16gg\LL	.	-ri-	.	.	.
.	.	.	.	.	16ee\	.	.	.	.	.	.	.	.	.	.	.	.	.	16ee\JJ	.	.	.	.	.
8D\J	.	.	8f#/J	.	16ff#\	.	.	.	.	.	.	.	.	.	.	.	.	.	16ff#\LL	.	-tus	.	.	.
.	.	.	.	.	16dd\JJ	.	.	.	.	.	.	.	.	.	.	.	.	.	16dd\JJ	.	.	.	.	.
!LO:TX:a:t=P:problem=mixed beam	!	!	!	!	!	!	!	!	!	!	!	!	!	!	!	!	!	!	!	!	!	!	!	!
8AA/L	4	.	8f#/L	.	24dd\LL	.	.	.	.	.	.	.	.	.	.	.	.	.	8dd\	.	me-	.	.	.
.	.	.	.	.	24cc#\	.	.	.	.	.	.	.	.	.	.	.	.	.	.	.	.	.	.	.
.	.	.	.	.	24dd\J	.	.	.	.	.	.	.	.	.	.	.	.	.	.	.	.	.	.	.
8A\	3	.	8e/	.	8cc#\J	.	.	.	.	.	.	.	.	.	.	.	.	.	8cc#\	-um	-us	.	.	.
8AA/J	.	.	8e/J	.	8r	.	.	.	.	.	.	.	.	.	.	.	.	.	8r	.	.	.	.	.
8r	.	.	8r	.	16gg\LL	.	.	.	.	.	.	.	.	.	.	.	.	.	16gg\LL	se-	in	.	.	.
.	.	.	.	.	16ee\JJ	.	.	.	.	.	.	.	.	.	.	.	.	.	16ee\JJ	.	.	.	.	.
=7	=7	=7	=7	=7	=7	=7	=7	=7	=7	=7	=7	=7	=7	=7	=7	=7	=7	=7	=7	=7	=7	=7	=7	=7
8r	.	.	8r	.	4.cc#\	.	.	.	.	.	.	.	.	.	.	.	.	.	4.cc#\	-cun-	De-	.	.	.
!LO:TX:a:t=P:problem=mixed beam	!	!	!	!	!	!	!	!	!	!	!	!	!	!	!	!	!	!	!	!	!	!	!	!
8AA/L	3_	.	8e/L	.	.	.	.	.	.	.	.	.	.	.	.	.	.	.	.	.	.	.	.	.
8A\	.	.	8e/	.	.	.	.	.	.	.	.	.	.	.	.	.	.	.	.	.	.	.	.	.
8G\J	X	.	8e/J	.	16b\LL	.	.	.	.	.	.	.	.	.	.	.	.	.	16b\LL	-dum	-o	.	.	.
.	.	.	.	.	16cc#\JJ	.	.	.	.	.	.	.	.	.	.	.	.	.	16cc#\JJ	.	.	.	.	.
!	!	!	!	!	!LO:LB:g=original	!	!	!	!	!	!	!	!	!	!	!	!	!	!	!	!	!	!	!
8F#\L	6_	.	8f#/L	.	16cc#\LL	.	.	.	.	.	.	.	.	.	.	.	.	.	16cc#\LL	ver-	Sa-	.	.	.
.	.	.	.	.	16dd\JJ	.	.	.	.	.	.	.	.	.	.	.	.	.	16dd\JJ	.	.	.	.	.
16F#\L	.	.	8a/	.	4dd\	.	.	.	.	.	.	.	.	.	.	.	.	.	4dd\	.	.	.	.	.
16E\JJ	.	.	.	.	.	.	.	.	.	.	.	.	.	.	.	.	.	.	.	.	.	.	.	.
8F#\L	X	.	8a/	.	.	.	.	.	.	.	.	.	.	.	.	.	.	.	.	.	.	.	.	.
8F#\J	.	.	8a/J	.	16ff#\LL	.	.	.	.	.	.	.	.	.	.	.	.	.	16ff#\LL	-bum	-lu-	.	.	.
.	.	.	.	.	16dd\JJ	.	.	.	.	.	.	.	.	.	.	.	.	.	16dd\JJ	.	.	.	.	.
!	!	!	!	!	!	!	!	!	!	!	!	!	!	!	!	!	!	!	!LO:PB:g=original	!	!	!	!	!
=8	=8	=8	=8	=8	=8	=8	=8	=8	=8	=8	=8	=8	=8	=8	=8	=8	=8	=8	=8	=8	=8	=8	=8	=8
!LO:TX:a:t=P:problem=mixed beam	!	!	!	!	!	!	!	!	!	!	!	!	!	!	!	!	!	!	!	!	!	!	!	!
8G\L	6_	.	16g/LL	.	16ee\LL	.	.	.	.	.	.	.	.	.	.	.	.	.	16ee\LL	tu-	-ta-	.	.	.
.	.	.	16b/	.	16gg\	.	.	.	.	.	.	.	.	.	.	.	.	.	16gg\JJ	.	.	.	.	.
8G\	.	.	16a/	.	16ff#\	.	.	.	.	.	.	.	.	.	.	.	.	.	16ff#\LL	.	-ri-	.	.	.
.	.	.	16g/JJ	.	16ee\JJ	.	.	.	.	.	.	.	.	.	.	.	.	.	16ee\JJ	.	.	.	.	.
8A\	4	.	8f#/L	.	8dd\L	.	.	.	.	.	.	.	.	.	.	.	.	.	8dd\L	.	-me-	.	.	.
8AA/J	3	.	8e/J	.	8cc#\J	.	.	.	.	.	.	.	.	.	.	.	.	.	8cc#\J	.	.	.	.	.
!LO:LB:g=original	!	!	!	!	!	!	!	!	!	!	!	!	!	!	!	!	!	!	!	!	!	!	!	!
4D\	.	.	8f#/L	.	16dd\LL	.	.	.	.	.	.	.	.	.	.	.	.	.	4dd\	-um	-o	.	.	.
.	.	.	.	.	16a\	.	.	.	.	.	.	.	.	.	.	.	.	.	.	.	.	.	.	.
.	.	.	16g/L	.	16b\	.	.	.	.	.	.	.	.	.	.	.	.	.	.	.	.	.	.	.
.	.	.	16a/JJ	.	16cc#\JJ	.	.	.	.	.	.	.	.	.	.	.	.	.	.	.	.	.	.	.
!LO:TX:a:t=tutti	!	!	!	!	!	!	!	!	!	!	!	!	!	!	!	!	!	!	!	!	!	!	!	!
4r	.	.	16b\LL	.	16dd\LL	.	.	.	.	.	.	.	.	.	.	.	.	.	4r	.	.	.	.	.
.	.	.	16cc#\	.	16ee\	.	.	.	.	.	.	.	.	.	.	.	.	.	.	.	.	.	.	.
.	.	.	16dd\	.	16ff#\	.	.	.	.	.	.	.	.	.	.	.	.	.	.	.	.	.	.	.
.	.	.	16ee\JJ	.	16gg\JJ	.	.	.	.	.	.	.	.	.	.	.	.	.	.	.	.	.	.	.
!	!	!	!LO:LB:g=original	!	!	!	!	!	!	!	!	!	!	!	!	!	!	!	!	!	!	!	!LO:LB:g=original	!
=9	=9	=9	=9	=9	=9	=9	=9	=9	=9	=9	=9	=9	=9	=9	=9	=9	=9	=9	=9	=9	=9	=9	=9	=9
*	*	*	*	*	*	*	*	*	*	*	*	*	*	*	*	*	*	*	*	*	*	*	*2\right	*
!	!	!	!LO:TX:a:t=P:problem=mixed beam	!LO:DY:t=for&colon;	!	!LO:DY:t=for&colon;	!	!	!	!	!	!	!	!	!	!	!	!	!	!	!	!	!	!
8D\L	.	.	8ff#\L	f	8aa\L	f	4D\	Do-	&	.	4d\	in	&	.	4a\	se-	&	.	4ff#\	se-	&	.	2dd\	2ff#\
8D\	.	.	8a/	.	(32ff#\LL	.	.	.	.	.	.	.	.	.	.	.	.	.	.	.	.	.	.	.
.	.	.	.	.	32ee\	.	.	.	.	.	.	.	.	.	.	.	.	.	.	.	.	.	.	.
.	.	.	.	.	32ff#\	.	.	.	.	.	.	.	.	.	.	.	.	.	.	.	.	.	.	.
.	.	.	.	.	32gg\JJJ)	.	.	.	.	.	.	.	.	.	.	.	.	.	.	.	.	.	.	.
8D\	.	.	8f#/	.	16aa\LL	.	8D\	-mi-	ex-	.	8d\	pa-	ex-	.	8a\	-cun-	ex-	.	8ff#\	-cun-	ex-	.	.	.
.	.	.	.	.	16ff#\	.	.	.	.	.	.	.	.	.	.	.	.	.	.	.	.	.	.	.
8D\J	.	.	8f#/J	.	16bb\	.	8D\	-ne	-ul-	.	8d\	-ce	-ul-	.	8a\	-dum	-ul-	.	8ff#\	-dum	-ul-	.	.	.
.	.	.	.	.	16aa\JJ	.	.	.	.	.	.	.	.	.	.	.	.	.	.	.	.	.	.	.
*2\right	*	*	*	*	*	*	*	*	*	*	*	*	*	*	*	*	*	*	*	*	*	*	*	*
*tremolo	*	*	*	*	*	*	*	*	*	*	*	*	*	*	*	*	*	*	*	*	*	*	*	*
8G\L	6	.	8b\L	.	16aa\LL	.	4G\	Se-	-ta-	.	4B\	se-	-ta-	.	4g\	ver-	-ta-	.	4ee\	ver-	-ta-	.	2ee\	2gg\
.	.	.	.	.	16gg\	.	.	.	.	.	.	.	.	.	.	.	.	.	.	.	.	.	.	.
8G\	.	.	8b\	.	16ff#\	.	.	.	.	.	.	.	.	.	.	.	.	.	.	.	.	.	.	.
.	.	.	.	.	16ee\JJ	.	.	.	.	.	.	.	.	.	.	.	.	.	.	.	.	.	.	.
!	!	!	!	!	!LO:LB:g=original	!	!	!	!	!	!	!	!	!	!	!	!	!	!	!	!	!	!	!
8G\	.	.	8b\	.	16dd\LL	.	4G\	.	-vit	.	4B\	-cun-	-vit	.	4g\	-bum	-vit	.	4ee\	-bum	-vit	.	.	.
.	.	.	.	.	16ee\	.	.	.	.	.	.	.	.	.	.	.	.	.	.	.	.	.	.	.
8G\J	.	.	8b\J	.	16dd\	.	.	.	.	.	.	.	.	.	.	.	.	.	.	.	.	.	.	.
.	.	.	.	.	16ee\JJ	.	.	.	.	.	.	.	.	.	.	.	.	.	.	.	.	.	.	.
!	!	!	!	!	!	!	!LO:LB:g=original	!	!	!	!	!	!	!	!LO:LB:g=original	!	!	!	!	!	!	!	!	!LO:LB:g=original
=10	=10	=10	=10	=10	=10	=10	=10	=10	=10	=10	=10	=10	=10	=10	=10	=10	=10	=10	=10	=10	=10	=10	=10	=10
*	*	*	*tremolo	*	*	*	*	*	*	*	*	*	*	*	*	*	*	*	*	*	*	*	*	*
8A\L	.	.	8e/L	.	8gg\L	.	4A\	-cun-	Spi-	.	4B\	-dum	Spi-	.	4g\	se-	Spi-	.	4ee\	se-	Spi-	.	2a/	2ee\
8A\	.	.	8e/	.	(32ee\LL	.	.	.	.	.	.	.	.	.	.	.	.	.	.	.	.	.	.	.
.	.	.	.	.	32dd\	.	.	.	.	.	.	.	.	.	.	.	.	.	.	.	.	.	.	.
.	.	.	.	.	32ee\	.	.	.	.	.	.	.	.	.	.	.	.	.	.	.	.	.	.	.
.	.	.	.	.	32ff#\JJJ)	.	.	.	.	.	.	.	.	.	.	.	.	.	.	.	.	.	.	.
8A\	.	.	8e/	.	16gg\LL	.	8A\	-dum	-ri-	.	8c#\	ver-	-ri-	.	8g\	-cun-	-ri-	.	8ee\	-cun-	-ri-	.	.	.
.	.	.	.	.	16ee\	.	.	.	.	.	.	.	.	.	.	.	.	.	.	.	.	.	.	.
8A\J	.	.	8e/J	.	16aa\	.	8A\	se-	-tus	.	8c#\	-bum	-tus	.	8g\	-dum	-tus	.	8ee\	-dum	-tus	.	.	.
.	.	.	.	.	16gg\JJ	.	.	.	.	.	.	.	.	.	.	.	.	.	.	.	.	.	.	.
!	!	!	!	!	!	!	!	!	!	!	!LO:LB:g=original	!	!	!	!	!	!	!	!	!	!	!	!	!
8D\L	.	.	8f#/L	.	16gg\LL	.	4D\	-cun-	me-	.	4A\	tu-	me-	.	4f#\	ver-	me-	.	4dd\	ver-	me-	.	2dd\	2ff#\
.	.	.	.	.	16ff#\	.	.	.	.	.	.	.	.	.	.	.	.	.	.	.	.	.	.	.
8D\	.	.	8f#/	.	16ee\	.	.	.	.	.	.	.	.	.	.	.	.	.	.	.	.	.	.	.
.	.	.	.	.	16dd\JJ	.	.	.	.	.	.	.	.	.	.	.	.	.	.	.	.	.	.	.
8D\	.	.	8f#/	.	16cc#\LL	.	8D\	-dum	-us	.	8A\	-um	-us	.	8f#\	-bum	-us	.	8dd\	-bum	-us	.	.	.
.	.	.	.	.	16dd\	.	.	.	.	.	.	.	.	.	.	.	.	.	.	.	.	.	.	.
8D\J	.	.	8f#/J	.	16cc#\	.	8D\	se-	in	.	8A\	in	in	.	8f#\	in	in	.	8dd\	se-	in	.	.	.
.	.	.	.	.	16dd\JJ	.	.	.	.	.	.	.	.	.	.	.	.	.	.	.	.	.	.	.
!	!	!	!	!	!	!	!	!	!	!	!	!	!	!	!	!	!	!	!LO:LB:g=original	!	!	!	!	!
=11	=11	=11	=11	=11	=11	=11	=11	=11	=11	=11	=11	=11	=11	=11	=11	=11	=11	=11	=11	=11	=11	=11	=11	=11
8d\L	.	.	8a/L	.	8ff#\L	.	4d\	-cun-	De-	.	4A\	pa-	De-	.	4f#\	pa-	De-	.	4dd\	-cun-	De-	.	4dd\	4ff#\
8d\	.	.	8a/	.	32ff#\LL	.	.	.	.	.	.	.	.	.	.	.	.	.	.	.	.	.	.	.
.	.	.	.	.	32gg\	.	.	.	.	.	.	.	.	.	.	.	.	.	.	.	.	.	.	.
.	.	.	.	.	32ff#\	.	.	.	.	.	.	.	.	.	.	.	.	.	.	.	.	.	.	.
.	.	.	.	.	32ee\JJJ	.	.	.	.	.	.	.	.	.	.	.	.	.	.	.	.	.	.	.
8d\	.	.	8a/	.	16ee\LL	.	4d\	-dum	-o	.	4A\	-ce	-o	.	4f#\	-ce	-o	.	4dd\	-dum	-o	.	4dd\	4ff#\
.	.	.	.	.	16cc#\	.	.	.	.	.	.	.	.	.	.	.	.	.	.	.	.	.	.	.
8d\J	.	.	8a/J	.	16ee\	.	.	.	.	.	.	.	.	.	.	.	.	.	.	.	.	.	.	.
.	.	.	.	.	16aa\JJ	.	.	.	.	.	.	.	.	.	.	.	.	.	.	.	.	.	.	.
*Xtremolo	*	*	*Xtremolo	*	*	*	*	*	*	*	*	*	*	*	*	*	*	*	*	*	*	*	*	*
8d\L	#4r_ 2_	.	8b/L	.	16gg#X\LL	.	4d\	ver-	Sa-	.	4B\	pa-	Sa-	.	4g#X\	pa-	Sa-	.	4ee\	ver-	Sa-	.	4a/	4ee\
.	.	.	.	.	16bb\	.	.	.	.	.	.	.	.	.	.	.	.	.	.	.	.	.	.	.
8d\	.	.	8b/	.	16ee\	.	.	.	.	.	.	.	.	.	.	.	.	.	.	.	.	.	.	.
.	.	.	.	.	16gg#\JJ	.	.	.	.	.	.	.	.	.	.	.	.	.	.	.	.	.	.	.
8c#\	6	.	8a/	.	16aa\LL	.	4c#\	-bum	-lu-	.	4c#\	.	-lu-	.	4a\	-ce	-lu-	.	4ee\	-bum	-lu-	.	4a/	4ee\
.	.	.	.	.	16ee\	.	.	.	.	.	.	.	.	.	.	.	.	.	.	.	.	.	.	.
8c#\J	.	.	8a/J	.	16cc#\	.	.	.	.	.	.	.	.	.	.	.	.	.	.	.	.	.	.	.
.	.	.	.	.	16ee\JJ	.	.	.	.	.	.	.	.	.	.	.	.	.	.	.	.	.	.	.
!	!	!	!	!	!LO:LB:g=original	!	!	!	!	!	!	!	!	!	!	!	!	!	!	!	!	!	!	!
=12	=12	=12	=12	=12	=12	=12	=12	=12	=12	=12	=12	=12	=12	=12	=12	=12	=12	=12	=12	=12	=12	=12	=12	=12
8G#X\L	6 5	.	8b\L	.	16ee\LL	.	4G#X\	ver-	-ta-	.	4e\	.	-ta-	.	4b\	in	-ta-	.	4dd\	tu-	-ta-	.	4ee\	4ee\
.	.	.	.	.	16dd\	.	.	.	.	.	.	.	.	.	.	.	.	.	.	.	.	.	.	.
8G#\	.	.	16dd\L	.	16bb\	.	.	.	.	.	.	.	.	.	.	.	.	.	.	.	.	.	.	.
.	.	.	16b\JJ	.	16dd\JJ	.	.	.	.	.	.	.	.	.	.	.	.	.	.	.	.	.	.	.
8A\	.	.	16b\LL	.	16dd\LL	.	4A\	-bum	-ri	.	4e\	.	-ri	.	4a\	.	-ri	.	4cc#\	.	-ri	.	8a/L	8ee\L
.	.	.	16a\	.	16cc#\	.	.	.	.	.	.	.	.	.	.	.	.	.	.	.	.	.	.	.
8A\J	.	.	16cc#\	.	16aa\	.	.	.	.	.	.	.	.	.	.	.	.	.	.	.	.	.	8a/J	8ee\J
.	.	.	16a\JJ	.	16cc#\JJ	.	.	.	.	.	.	.	.	.	.	.	.	.	.	.	.	.	.	.
!LO:TX:a:t=P:problem=mixed beam	!	!	!	!	!	!	!	!	!	!	!	!	!	!	!	!	!	!	!	!	!	!	!	!
8E\L	4	.	8.a/L	.	8.cc#\L	.	4E\	tu-	me-	.	4e\	.	me-	.	4a\	pa-	me-	.	4cc#\	.	me-	.	8ee\L	8ee\L
8E\	.	.	.	.	.	.	.	.	.	.	.	.	.	.	.	.	.	.	.	.	.	.	8ee\	8ee\
.	.	.	32g#X/LL	.	32b\LL	.	.	.	.	.	.	.	.	.	.	.	.	.	.	.	.	.	.	.
.	.	.	32a/JJJ	.	32cc#\JJJ	.	.	.	.	.	.	.	.	.	.	.	.	.	.	.	.	.	.	.
!	!	!	!LO:LB:g=original	!	!	!	!	!	!	!	!	!	!	!	!	!	!	!	!	!	!	!	!	!
8EE/	#	.	8g#X/L	.	8b/L	.	4E\	-um	-o	.	4e\	.	-o	.	4g#X\	-ce	-o	.	4b\	-um	-o	.	8ee\J	8ee\J
8EE/J	.	.	8e/J	.	8e/J	.	.	.	.	.	.	.	.	.	.	.	.	.	.	.	.	.	8r	8r
!LO:LB:g=original	!	!	!	!	!	!	!LO:LB:g=original	!	!	!	!	!	!	!	!LO:LB:g=original	!	!	!	!	!	!	!	!	!
=13	=13	=13	=13	=13	=13	=13	=13	=13	=13	=13	=13	=13	=13	=13	=13	=13	=13	=13	=13	=13	=13	=13	=13	=13
8G#X\L	6_ 5_	.	8eL 8B/	.	8.dd\L	.	4G\	se-	in	.	4e\	.	in	.	4b\	se-	in	.	4dd\	se-	in	.	2ee\	1ee
8G#\	.	.	8e 8B/	.	.	.	.	.	.	.	.	.	.	.	.	.	.	.	.	.	.	.	.	.
.	.	.	.	.	32cc#\LL	.	.	.	.	.	.	.	.	.	.	.	.	.	.	.	.	.	.	.
.	.	.	.	.	32dd\JJJ	.	.	.	.	.	.	.	.	.	.	.	.	.	.	.	.	.	.	.
8G#\	.	.	8e 8B/	.	16bb\LL	.	8G\	-cun-	De-	.	8e\	-ce	De-	.	8b\	-cun-	De-	.	8dd\	-cun-	De-	.	.	.
.	.	.	.	.	16gg#X\	.	.	.	.	.	.	.	.	.	.	.	.	.	.	.	.	.	.	.
8G#\J	.	.	8eJ 8B/	.	16ee\	.	8G\	-dum	-o	.	8e\	in	-o	.	8b\	-dum	-o	.	8dd\	-dum	-o	.	.	.
.	X X	.	.	.	16dd\JJ	.	.	.	.	.	.	.	.	.	.	.	.	.	.	.	.	.	.	.
*tremolo	*	*	*tremolo	*	*	*	*	*	*	*	*	*	*	*	*	*	*	*	*	*	*	*	*	*
8A\L	.	.	8e 8c#/L	.	16cc#\LL	.	4A\	ver-	Sa-	.	4e\	pa-	Sa-	.	4a\	ver-	Sa-	.	4cc#\	ver-	Sa-	.	2a/	.
.	.	.	.	.	16ee\	.	.	.	.	.	.	.	.	.	.	.	.	.	.	.	.	.	.	.
8A\	.	.	8e 8c#/	.	16aa\	.	.	.	.	.	.	.	.	.	.	.	.	.	.	.	.	.	.	.
.	.	.	.	.	16gg#\JJ	.	.	.	.	.	.	.	.	.	.	.	.	.	.	.	.	.	.	.
8A\	.	.	8e 8c#/	.	16ff#\LL	.	4A\	-bum	-lu-	.	4e\	.	-lu-	.	4a\	-bum	-lu-	.	4cc#\	-bum	-lu-	.	.	.
.	.	.	.	.	16ee\	.	.	.	.	.	.	.	.	.	.	.	.	.	.	.	.	.	.	.
8A\J	.	.	8e 8c#/J	.	16dd\	.	.	.	.	.	.	.	.	.	.	.	.	.	.	.	.	.	.	.
.	.	.	.	.	16cc#\JJ	.	.	.	.	.	.	.	.	.	.	.	.	.	.	.	.	.	.	.
!	!	!	!	!	!	!	!	!	!	!	!LO:LB:g=original	!	!	!	!	!	!	!	!	!	!	!	!	!
=14	=14	=14	=14	=14	=14	=14	=14	=14	=14	=14	=14	=14	=14	=14	=14	=14	=14	=14	=14	=14	=14	=14	=14	=14
8G#X\L	6 5	.	8e 8B/L	.	8.dd\L	.	4G#X\	ver-	-ta-	.	4e\	.	-ta-	.	4b\	ver-	-ta-	.	4dd\	tu-	-ta-	.	2ee\	1ee
8G#X\	.	.	8e 8B/	.	.	.	.	.	.	.	.	.	.	.	.	.	.	.	.	.	.	.	.	.
.	.	.	.	.	32cc#\LL	.	.	.	.	.	.	.	.	.	.	.	.	.	.	.	.	.	.	.
.	.	.	.	.	32dd\JJJ	.	.	.	.	.	.	.	.	.	.	.	.	.	.	.	.	.	.	.
8G#X\	.	.	8e 8B/	.	16bb\LL	.	4G#\	-bum	-ri	.	4e\	.	-ri	.	4b\	-bum	-ri	.	4dd\	-um	-ri	.	.	.
.	.	.	.	.	16gg#X\	.	.	.	.	.	.	.	.	.	.	.	.	.	.	.	.	.	.	.
8G#X\J	.	.	8e 8B/J	.	16ee\	.	.	.	.	.	.	.	.	.	.	.	.	.	.	.	.	.	.	.
.	.	.	.	.	16dd\JJ	.	.	.	.	.	.	.	.	.	.	.	.	.	.	.	.	.	.	.
!	!	!	!	!	!LO:LB:g=original	!	!	!	!	!	!	!	!	!	!	!	!	!	!	!	!	!	!	!
*	*	*	*	*	*	*	*	*	*	*	*	*	*	*	*	*	*	*	*	*ij	*	*	*	*
8A\L	.	.	8e 8c#/L	.	16cc#\LL	.	4A\	tu-	me-	.	4e\	.	me-	.	4a\	tu-	me-	.	4cc#\	tu-	me-	.	2a/	.
.	.	.	.	.	16ee\	.	.	.	.	.	.	.	.	.	.	.	.	.	.	.	.	.	.	.
8A\	.	.	8e 8c#/	.	16aa\	.	.	.	.	.	.	.	.	.	.	.	.	.	.	.	.	.	.	.
.	.	.	.	.	16gg#X\JJ	.	.	.	.	.	.	.	.	.	.	.	.	.	.	.	.	.	.	.
8A\	.	.	8e 8c#/	.	16ff#\LL	.	4A\	-um	-o	.	4e\	.	-o	.	4a\	-um	-o	.	4cc#\	-um	-o	.	.	.
*	*	*	*	*	*	*	*	*	*	*	*	*	*	*	*	*	*	*	*	*Xij	*	*	*	*
.	.	.	.	.	16ee\	.	.	.	.	.	.	.	.	.	.	.	.	.	.	.	.	.	.	.
8A\J	.	.	8e 8c#/J	.	16dd\	.	.	.	.	.	.	.	.	.	.	.	.	.	.	.	.	.	.	.
.	.	.	.	.	16cc#\JJ	.	.	.	.	.	.	.	.	.	.	.	.	.	.	.	.	.	.	.
!	!	!	!	!	!	!	!	!	!	!	!	!	!	!	!	!	!	!	!LO:LB:g=original	!	!	!	!	!
=15	=15	=15	=15	=15	=15	=15	=15	=15	=15	=15	=15	=15	=15	=15	=15	=15	=15	=15	=15	=15	=15	=15	=15	=15
8D/L	6	.	8f#/L	.	16cc#\LL	.	4d\	in	in	.	4d\	.	in	.	4b\	in	in	.	4ff#\	se-	in	.	2dd\	2ff#\
.	.	.	.	.	16b\	.	.	.	.	.	.	.	.	.	.	.	.	.	.	.	.	.	.	.
8D/	.	.	8f#/	.	16a#X\	.	.	.	.	.	.	.	.	.	.	.	.	.	.	.	.	.	.	.
.	.	.	.	.	16b\JJ	.	.	.	.	.	.	.	.	.	.	.	.	.	.	.	.	.	.	.
8D/	.	.	8f#/	.	16gg\LL	.	8d\	pa-	De-	.	8d\	-ce	De-	.	8b\	pa-	De-	.	8ff#\	-cun-	De-	.	.	.
.	.	.	.	.	16dd\	.	.	.	.	.	.	.	.	.	.	.	.	.	.	.	.	.	.	.
8D/J	.	.	8f#/J	.	16cc#\	.	8d\	-ce	-o	.	8d\	in	-o	.	8b\	-ce	-o	.	8ff#\	-dum	-o	.	.	.
.	.	.	.	.	16b\JJ	.	.	.	.	.	.	.	.	.	.	.	.	.	.	.	.	.	.	.
8C#/L	6	.	8e/L	.	16b/LL	.	4c#\	in	Sa-	.	4e\	pa-	Sa-	.	4a\	pa-	Sa-	.	4ee\	ver-	Sa-	.	2a/	2ee\
.	.	.	.	.	16an/	.	.	.	.	.	.	.	.	.	.	.	.	.	.	.	.	.	.	.
8C#/	.	.	8e/	.	16g#X/	.	.	.	.	.	.	.	.	.	.	.	.	.	.	.	.	.	.	.
.	.	.	.	.	16a/JJ	.	.	.	.	.	.	.	.	.	.	.	.	.	.	.	.	.	.	.
8C#/	.	.	8e/	.	16ee\LL	.	4c#\	.	-lu-	.	4e\	.	-lu-	.	4a\	-ce	-lu-	.	4ee\	-bum	-lu-	.	.	.
.	.	.	.	.	16cc#\	.	.	.	.	.	.	.	.	.	.	.	.	.	.	.	.	.	.	.
8C#/J	.	.	8e/J	.	16b\	.	.	.	.	.	.	.	.	.	.	.	.	.	.	.	.	.	.	.
.	.	.	.	.	16a\JJ	.	.	.	.	.	.	.	.	.	.	.	.	.	.	.	.	.	.	.
*Xtremolo	*	*	*Xtremolo	*	*	*	*	*	*	*	*	*	*	*	*	*	*	*	*	*	*	*	*	*
!	!	!	!LO:PB:g=original	!	!	!	!LO:LB:g=original	!	!	!	!	!	!	!	!LO:PB:g=original	!	!	!	!	!	!	!	!	!
=16	=16	=16	=16	=16	=16	=16	=16	=16	=16	=16	=16	=16	=16	=16	=16	=16	=16	=16	=16	=16	=16	=16	=16	=16
*	*	*	*	*	*	*	*	*	*	*	*	*	*	*	*	*	*	*	*	*ij	*	*	*	*
!LO:TX:a:t=P:problem=mixed beam	!	!	!	!	!	!	!	!	!	!	!	!	!	!	!	!	!	!	!	!	!	!	!	!
8D\L	6	.	8f#/L	.	16b\LL	.	8d\	pa-	-ta-	.	8f#\	-ce	-ta-	.	8b\	in	-ta-	.	8dd\	ver-	-ta-	.	4dd\	4ff#\
.	.	.	.	.	16dd\	.	.	.	.	.	.	.	.	.	.	.	.	.	.	.	.	.	.	.
*	*	*	*Xtuplet	*	*	*	*	*	*	*	*	*	*	*	*	*	*	*	*	*	*	*	*	*
8D\	.	.	24f#/L	.	16cc#\	.	8d\	-ce	-ri	.	8f#\	in	-ri	.	8b\	.	-ri	.	8dd\	-bum	-ri	.	.	.
*	*	*	*	*	*	*	*	*	*	*	*	*	*	*	*	*	*	*	*	*Xij	*	*	*	*
.	.	.	24e/	.	.	.	.	.	.	.	.	.	.	.	.	.	.	.	.	.	.	.	.	.
.	.	.	.	.	16b\JJ	.	.	.	.	.	.	.	.	.	.	.	.	.	.	.	.	.	.	.
.	.	.	24d/JJ	.	.	.	.	.	.	.	.	.	.	.	.	.	.	.	.	.	.	.	.	.
8E\	4	.	8c#/L	.	8a/L	.	8e\L	pa-	me-	.	4e\	pa-	me-	.	8a\L	pa-	me-	.	8cc#\L	tu-	me-	.	8ee\L	8ee\L
8EE/J	#	.	8B/J	.	8g#X/J	.	8E\J	.	.	.	.	.	.	.	8g#X\J	.	.	.	8b\J	.	.	.	8ee\J	8ee\J
!LO:TX:a:t=P:problem=mixed beam	!	!	!	!	!	!	!	!	!	!	!	!	!	!	!	!	!	!	!	!	!	!	!	!
8AA/L	.	.	8c#/L	.	4a/	.	4A\	-ce	-o	.	4e\	-ce	-o	.	4a\	-ce	-o	.	4cc#\	-um	-o	.	4a/	4ee\
8A\	.	.	8c#/	.	.	.	.	.	.	.	.	.	.	.	.	.	.	.	.	.	.	.	.	.
!	!	!	!	!	!	!	!	!	!	!	!	!	!	!	!	!	!	!	!LO:TX:b:t=Solo	!	!	!	!	!
8AA/J	.	.	8c#/J	.	8r	.	4r	.	.	.	4r	.	.	.	4r	.	.	.	8r	.	.	.	4r	4r
!	!	!LO:DY:t=pio&colon;	!	!	!	!	!	!	!	!	!	!	!	!	!	!	!	!	!	!	!	!	!	!
8r	.	p	8r	.	16ee\LL	.	.	.	.	.	.	.	.	.	.	.	.	.	16ee\LL	in	qui-	.	.	.
.	.	.	.	.	16cc#\JJ	.	.	.	.	.	.	.	.	.	.	.	.	.	16cc#\JJ	.	.	.	.	.
!	!	!	!	!	!LO:LB:g=original	!	!	!	!	!	!	!	!	!	!	!	!	!	!	!	!	!	!	!LO:LB:g=original
=17	=17	=17	=17	=17	=17	=17	=17	=17	=17	=17	=17	=17	=17	=17	=17	=17	=17	=17	=17	=17	=17	=17	=17	=17
!	!	!	!	!	!LO:TX:b:i:t=Amen.	!LO:DY:t=pio&colon;	!	!	!	!	!	!	!	!	!	!	!	!	!	!	!	!	!LO:TX:a:t=6.	!
8r	.	.	8r	.	4.a/	p	00r	.	.	.	00r	.	.	.	00r	.	.	.	4.a\	pa-	-a	.	00r	00r
!	!	!	!	!LO:DY:t=p&colon;	!	!	!	!	!	!	!	!	!	!	!	!	!	!	!	!	!	!	!	!
8A\L	.	.	8c#/L	p	.	.	.	.	.	.	.	.	.	.	.	.	.	.	.	.	.	.	.	.
8A\	.	.	8c#/	.	.	.	.	.	.	.	.	.	.	.	.	.	.	.	.	.	.	.	.	.
8A\J	.	.	8c#/J	.	16g#X/LL	.	.	.	.	.	.	.	.	.	.	.	.	.	16g#X\LL	.	reſ-	.	.	.
.	.	.	.	.	16a/JJ	.	.	.	.	.	.	.	.	.	.	.	.	.	16a\JJ	.	.	.	.	.
8r	.	.	8r	.	16a#X/LL	.	.	.	.	.	.	.	.	.	.	.	.	.	16a#X\LL	.	-pe-	.	.	.
.	.	.	.	.	16b/	.	.	.	.	.	.	.	.	.	.	.	.	.	16b\	.	.	.	.	.
8D\L	6_	.	8f#/L	.	16cc#/	.	.	.	.	.	.	.	.	.	.	.	.	.	16cc#\	.	.	.	.	.
.	.	.	.	.	16b/JJ	.	.	.	.	.	.	.	.	.	.	.	.	.	16b\JJ	.	.	.	.	.
8D\	.	.	8f#/	.	8b/L	.	.	.	.	.	.	.	.	.	.	.	.	.	8b\	-ce	-xit	.	.	.
!	!	!	!	!	!	!	!	!	!	!	!	!	!	!	!	!	!	!	!LO:LB:g=original	!	!	!	!	!
8D\J	X	.	8f#/J	.	16dd/L	.	.	.	.	.	.	.	.	.	.	.	.	.	16dd\LL	in	hu-	.	.	.
.	.	.	.	.	16b/JJ	.	.	.	.	.	.	.	.	.	.	.	.	.	16b\JJ	.	.	.	.	.
!LO:LB:g=original	!	!	!	!	!	!	!	!	!	!	!	!	!	!	!	!	!	!	!	!	!	!	!	!
=18	=18	=18	=18	=18	=18	=18	=18	=18	=18	=18	=18	=18	=18	=18	=18	=18	=18	=18	=18	=18	=18	=18	=18	=18
!	!	!	!	!	!LO:TX:b:i:t=amen.	!	!	!	!	!	!	!	!	!	!	!	!	!	!	!	!	!	!	!
8r	.	.	8r	.	4.g#X/	.	.	.	.	.	.	.	.	.	.	.	.	.	4.g#X\	pa-	-mi-	.	.	.
8E\L	#	.	8B/L	.	.	.	.	.	.	.	.	.	.	.	.	.	.	.	.	.	.	.	.	.
8E\	.	.	8B/	.	.	.	.	.	.	.	.	.	.	.	.	.	.	.	.	.	.	.	.	.
8E\J	.	.	8B/J	.	16f#/LL	.	.	.	.	.	.	.	.	.	.	.	.	.	16f#\LL	.	-li-	.	.	.
.	.	.	.	.	16g#/JJ	.	.	.	.	.	.	.	.	.	.	.	.	.	16g#\JJ	.	.	.	.	.
8r	.	.	8r	.	16g#/LL	.	.	.	.	.	.	.	.	.	.	.	.	.	16g#\LL	.	-ta-	.	.	.
.	.	.	.	.	16a/	.	.	.	.	.	.	.	.	.	.	.	.	.	16a\	.	.	.	.	.
8AA/L	.	.	8c#/L	.	16b/	.	.	.	.	.	.	.	.	.	.	.	.	.	16b\	.	.	.	.	.
.	.	.	.	.	16a/JJ	.	.	.	.	.	.	.	.	.	.	.	.	.	16a\JJ	.	.	.	.	.
8AA/	.	.	8c#/	.	8a/L	.	.	.	.	.	.	.	.	.	.	.	.	.	8a\	-ce	-tem	.	.	.
8AA/J	.	.	8c#/J	.	16a/L	.	.	.	.	.	.	.	.	.	.	.	.	.	16a\LL	in	hu-	.	.	.
.	.	.	.	.	16cc#/JJ	.	.	.	.	.	.	.	.	.	.	.	.	.	16cc#\JJ	.	.	.	.	.
!	!	!	!LO:LB:g=original	!	!	!	!	!	!	!	!	!	!	!	!	!	!	!	!	!	!	!	!	!
=19	=19	=19	=19	=19	=19	=19	=19	=19	=19	=19	=19	=19	=19	=19	=19	=19	=19	=19	=19	=19	=19	=19	=19	=19
8D\L	6_	.	8f#/L	.	8.b\L	.	.	.	.	.	.	.	.	.	.	.	.	.	8.b\L	pa-	.	.	.	.
8D\	.	.	8f#/	.	.	.	.	.	.	.	.	.	.	.	.	.	.	.	.	.	.	.	.	.
.	.	.	.	.	32dd\LL	.	.	.	.	.	.	.	.	.	.	.	.	.	32dd\LL	.	.	.	.	.
.	.	.	.	.	32ff#\JJJ	.	.	.	.	.	.	.	.	.	.	.	.	.	32ff#\JJJ	.	.	.	.	.
8D\	.	.	8f#/	.	16ee\LL	.	.	.	.	.	.	.	.	.	.	.	.	.	16ee\LL	.	-mi-	.	.	.
.	.	.	.	.	16dd\	.	.	.	.	.	.	.	.	.	.	.	.	.	16dd\JJ	.	.	.	.	.
8D\J	X	.	8f#/J	.	16cc#\	.	.	.	.	.	.	.	.	.	.	.	.	.	16cc#\LL	.	-li-	.	.	.
.	.	.	.	.	16b\JJ	.	.	.	.	.	.	.	.	.	.	.	.	.	16b\JJ	.	.	.	.	.
*	*	*	*tremolo	*	*	*	*	*	*	*	*	*	*	*	*	*	*	*	*	*	*	*	*	*
8E\L	#_	.	8e/L	.	8.g#X/L	.	.	.	.	.	.	.	.	.	.	.	.	.	8.g#X\L	.	-ta-	.	.	.
8D\	.	.	8e/	.	.	.	.	.	.	.	.	.	.	.	.	.	.	.	.	.	.	.	.	.
.	.	.	.	.	32f#/LL	.	.	.	.	.	.	.	.	.	.	.	.	.	32f#\LL	.	.	.	.	.
.	.	.	.	.	32g#/JJJ	.	.	.	.	.	.	.	.	.	.	.	.	.	32g#\JJJ	.	.	.	.	.
8C#\	6_	.	8e/	.	8a/L	.	.	.	.	.	.	.	.	.	.	.	.	.	8a\	.	-tem	.	.	.
8C#\J	.	.	8e/J	.	8a/J	.	.	.	.	.	.	.	.	.	.	.	.	.	8a\	-ce	an-	.	.	.
*	*	*	*Xtremolo	*	*	*	*	*	*	*	*	*	*	*	*	*	*	*	*	*	*	*	*	*
!	!	!	!	!	!LO:LB:g=original	!	!	!	!	!	!	!	!	!	!	!	!	!	!LO:LB:g=original	!	!	!	!	!
=20	=20	=20	=20	=20	=20	=20	=20	=20	=20	=20	=20	=20	=20	=20	=20	=20	=20	=20	=20	=20	=20	=20	=20	=20
!LO:TX:a:t=P:problem=mixed beam	!	!	!	!	!	!	!	!	!	!	!	!	!	!	!	!	!	!	!	!	!	!	!	!
8D\L	6_	.	8f#/L	.	8b\L	.	.	.	.	.	.	.	.	.	.	.	.	.	8b\	pa-	-cil-	.	.	.
8D\	.	.	16f#/L	.	16dd\L	.	.	.	.	.	.	.	.	.	.	.	.	.	16dd\LL	.	-lae	.	.	.
.	.	.	16d/JJ	.	16b\JJ	.	.	.	.	.	.	.	.	.	.	.	.	.	16b\JJ	.	.	.	.	.
8E\	4	.	8c#/L	.	8a/L	.	.	.	.	.	.	.	.	.	.	.	.	.	8a\L	.	Su-	.	.	.
8EE/J	#	.	8B/J	.	8g#X/J	.	.	.	.	.	.	.	.	.	.	.	.	.	8g#X\J	.	.	.	.	.
!LO:TX:a:t=P:problem=mixed beam	!	!	!	!	!	!	!	!	!	!	!	!	!	!	!	!	!	!	!	!	!	!	!	!
8AA/L	.	.	8c#/L	.	4a/	.	.	.	.	.	.	.	.	.	.	.	.	.	4a\	-ce	-ae	.	.	.
8A\	.	.	8c#/	.	.	.	.	.	.	.	.	.	.	.	.	.	.	.	.	.	.	.	.	.
8AA/J	.	.	8c#/J	.	8r	.	.	.	.	.	.	.	.	.	.	.	.	.	8r	.	.	.	.	.
8r	.	.	8r	.	16ff#\LL	.	.	.	.	.	.	.	.	.	.	.	.	.	16ff#\LL	se-	Ec-	.	.	.
.	.	.	.	.	16ee\JJ	.	.	.	.	.	.	.	.	.	.	.	.	.	16ee\JJ	.	.	.	.	.
=21	=21	=21	=21	=21	=21	=21	=21	=21	=21	=21	=21	=21	=21	=21	=21	=21	=21	=21	=21	=21	=21	=21	=21	=21
8r	.	.	8r	.	8.dd#X\L	.	0r	.	.	.	0r	.	.	.	0r	.	.	.	8.dd#X\L	-cun-	.	.	0r	0r
8A\L	#4r 2	.	8b/L	.	.	.	.	.	.	.	.	.	.	.	.	.	.	.	.	.	.	.	.	.
.	.	.	.	.	32cc#\LL	.	.	.	.	.	.	.	.	.	.	.	.	.	32cc#\LL	.	.	.	.	.
.	.	.	.	.	32dd#\JJJ	.	.	.	.	.	.	.	.	.	.	.	.	.	32dd#\JJJ	.	.	.	.	.
8Gn\	6	.	8b/	.	8ee\L	.	.	.	.	.	.	.	.	.	.	.	.	.	8ee\	-dum	-ce	.	.	.
8F#\J	.	.	8b/J	.	16ee\L	.	.	.	.	.	.	.	.	.	.	.	.	.	16ee\LL	ver-	E-	.	.	.
.	.	.	.	.	16gg\JJ	.	.	.	.	.	.	.	.	.	.	.	.	.	16gg\JJ	.	.	.	.	.
8D#X/L	6 5	.	16b/LL	.	16gg\LL	.	.	.	.	.	.	.	.	.	.	.	.	.	16gg\LL	.	.	.	.	.
.	.	.	16a/	.	16ff#\	.	.	.	.	.	.	.	.	.	.	.	.	.	16ff#\	.	.	.	.	.
8BB/	.	.	16f#/	.	16dd#\	.	.	.	.	.	.	.	.	.	.	.	.	.	16dd#\	.	.	.	.	.
.	.	.	16a/JJ	.	16ff#\JJ	.	.	.	.	.	.	.	.	.	.	.	.	.	16ff#\JJ	.	.	.	.	.
8E/J	.	.	8gn/	.	8ee\L	.	.	.	.	.	.	.	.	.	.	.	.	.	8ee\	-bum	-nim	.	.	.
8r	.	.	8r	.	16ee\L	.	.	.	.	.	.	.	.	.	.	.	.	.	16ee\LL	tu-	ex	.	.	.
.	.	.	.	.	16ddn\JJ	.	.	.	.	.	.	.	.	.	.	.	.	.	16ddn\JJ	.	.	.	.	.
!LO:LB:g=original	!	!	!LO:LB:g=original	!	!	!	!	!	!	!	!	!	!	!	!	!	!	!	!	!	!	!	!	!
=22	=22	=22	=22	=22	=22	=22	=22	=22	=22	=22	=22	=22	=22	=22	=22	=22	=22	=22	=22	=22	=22	=22	=22	=22
8r	.	.	8r	.	8.cc#\L	.	.	.	.	.	.	.	.	.	.	.	.	.	8.cc#\L	.	ho-	.	.	.
8G\L	4 2	.	8a/L	.	.	.	.	.	.	.	.	.	.	.	.	.	.	.	.	.	.	.	.	.
.	.	.	.	.	32b\LL	.	.	.	.	.	.	.	.	.	.	.	.	.	32b\LL	.	.	.	.	.
.	.	.	.	.	32cc#\JJJ	.	.	.	.	.	.	.	.	.	.	.	.	.	32cc#\JJJ	.	.	.	.	.
!	!	!	!	!	!	!	!	!	!	!	!	!	!	!	!	!	!	!	!LO:LB:g=original	!	!	!	!	!
8F#\	6	.	8a/	.	8dd\L	.	.	.	.	.	.	.	.	.	.	.	.	.	8dd\	-um	-c	.	.	.
8Dn\J	.	.	8a/J	.	16dd\L	.	.	.	.	.	.	.	.	.	.	.	.	.	16dd\LL	tu-	be-	.	.	.
.	.	.	.	.	16ff#\JJ	.	.	.	.	.	.	.	.	.	.	.	.	.	16ff#\JJ	.	.	.	.	.
8C#/L	6 5	.	16a/LL	.	16ff#\LL	.	.	.	.	.	.	.	.	.	.	.	.	.	16ff#\LL	.	-a-	.	.	.
.	.	.	16g/	.	16ee\	.	.	.	.	.	.	.	.	.	.	.	.	.	16ee\	.	.	.	.	.
8AA/	.	.	16e/	.	16cc#\	.	.	.	.	.	.	.	.	.	.	.	.	.	16cc#\	.	.	.	.	.
.	.	.	16g/JJ	.	16ee\JJ	.	.	.	.	.	.	.	.	.	.	.	.	.	16ee\JJ	.	.	.	.	.
8D/J	.	.	8f#/	.	8dd\L	.	.	.	.	.	.	.	.	.	.	.	.	.	8dd\	-um	-tam	.	.	.
8r	.	.	8r	.	16dd\L	.	.	.	.	.	.	.	.	.	.	.	.	.	16dd\LL	in	me-	.	.	.
.	.	.	.	.	16ff#\JJ	.	.	.	.	.	.	.	.	.	.	.	.	.	16ff#\JJ	.	.	.	.	.
!	!	!	!	!	!LO:LB:g=original	!	!	!	!	!	!LO:LB:g=original	!	!	!	!	!	!	!	!	!	!	!	!	!
=23	=23	=23	=23	=23	=23	=23	=23	=23	=23	=23	=23	=23	=23	=23	=23	=23	=23	=23	=23	=23	=23	=23	=23	=23
4C#/	6 5	.	8a/	.	16gg\LL	.	4r	.	.	.	4r	.	.	.	4r	.	.	.	8gg\L	pa-	-di-	.	4r	4r
.	.	.	.	.	16ee\	.	.	.	.	.	.	.	.	.	.	.	.	.	.	.	.	.	.	.
.	.	.	4a/	.	16aa\	.	.	.	.	.	.	.	.	.	.	.	.	.	16aa\L	.	.	.	.	.
.	.	.	.	.	16gg\JJ	.	.	.	.	.	.	.	.	.	.	.	.	.	16gg\JJ	.	.	.	.	.
.	.	.	.	.	8qgg/	.	.	.	.	.	.	.	.	.	.	.	.	.	.	.	.	.	.	.
8D\L	.	.	.	.	8ff#\L	.	8r	.	.	.	8r	.	.	.	8r	.	.	.	8ff#\	.	-cent	.	8r	8r
8F#\J	6	.	4a/	.	16ee\L	.	(8F#\	Nunc	om-	.	[8A\	Nunc	om-	.	16g\LL	se-	om-	.	16ee\LL	.	om-	.	8dd\	8ff#\
.	.	.	.	.	16dd\JJ	.	.	.	.	.	.	.	.	.	(16f#\JJ	.	.	.	(16dd\JJ	.	.	.	.	.
4G\	4 2	.	.	.	16cc#\LL	.	4G\)	.	.	.	4A\]	.	.	.	4e\)	-cun-	.	.	4cc#\)	.	.	.	4a/	4ee\
.	.	.	.	.	16dd\	.	.	.	.	.	.	.	.	.	.	.	.	.	.	.	.	.	.	.
.	.	.	4a/	.	16ee\	.	.	.	.	.	.	.	.	.	.	.	.	.	.	.	.	.	.	.
.	.	.	.	.	16cc#\JJ	.	.	.	.	.	.	.	.	.	.	.	.	.	.	.	.	.	.	.
8F#\L	6	.	.	.	8dd\L	.	8F#\L	di-	-nes	.	4A\	di-	-nes	.	4f#\	-dum	-nes	.	4dd\	-ce	-nes	.	4dd\	4ff#\
8D\J	.	.	[8a/	.	16ee\L	.	8D\J	.	.	.	.	.	.	.	.	.	.	.	.	.	.	.	.	.
.	.	.	.	.	16ff#\JJ	.	.	.	.	.	.	.	.	.	.	.	.	.	.	.	.	.	.	.
!	!	!	!	!	!	!	!	!	!	!	!	!	!	!	!	!	!	!	!	!	!	!	!LO:LB:g=original	!
=24	=24	=24	=24	=24	=24	=24	=24	=24	=24	=24	=24	=24	=24	=24	=24	=24	=24	=24	=24	=24	=24	=24	=24	=24
!	!	!	!	!	!	!	!	!LO:MO:mod=-mit-	!	!	!	!LO:MO:mod=-mit-	!	!	!	!	!	!	!	!	!	!	!	!
4C#/	6 5	.	8a/]	.	16gg\LL	.	8C#/	-mi-	ge-	.	8A\	mi-	ge-	.	8g\	ver-	ge-	.	8ee\	in	ge-	.	4ee\	4gg\
.	.	.	.	.	16ee\	.	.	.	.	.	.	.	.	.	.	.	.	.	.	.	.	.	.	.
.	.	.	4a/	.	16aa\	.	8C#/	-tis	-ne-	.	8A\	-tis	-ne-	.	8g\	-bum	-ne-	.	8ee\	in	-ne-	.	.	.
.	.	.	.	.	16gg\JJ	.	.	.	.	.	.	.	.	.	.	.	.	.	.	.	.	.	.	.
.	.	.	.	.	8qgg/	.	.	.	.	.	.	.	.	.	.	.	.	.	.	.	.	.	.	.
*	*	*	*	*	*	*	*	*	*	*	*	*	*	*	*	*ij	*	*	*	*	*	*	*	*
8D\L	.	.	.	.	8ff#\L	.	8D\	ser-	-ra-	.	8A\	Ser-	-ra-	.	8f#\	ver-	-ra-	.	8dd\	pa-	-ra-	.	4dd\	4ff#\
8F#\J	6	.	8a/	.	16ee\L	.	8F#\	-vum	-ti-	.	8A\	-vum	-ti-	.	8f#\	-bum	-ti-	.	8dd\	-ce	-ti-	.	.	.
*	*	*	*	*	*	*	*	*	*	*	*	*	*	*	*	*Xij	*	*	*	*	*	*	*	*
.	.	.	.	.	16dd\JJ	.	.	.	.	.	.	.	.	.	.	.	.	.	.	.	.	.	.	.
!LO:TX:a:t=P:problem=mixed beam	!	!	!	!	!	!LO:LB:g=original	!	!	!	!	!	!	!LO:LB:g=original	!	!	!	!	!LO:LB:g=original	!	!	!	!	!	!
8A\L	4_	.	8.f#/L	.	8.dd\L	.	4A\	tu-	-o-	.	4A\	tu-	-o-	.	4f#\	tu-	-o-	.	4dd\	pa-	-o-	.	4dd\	4ff#\
8AA/J	3	.	.	.	.	.	.	.	.	.	.	.	.	.	.	.	.	.	.	.	.	.	.	.
.	.	.	32e/LL	.	32cc#\LL	.	.	.	.	.	.	.	.	.	.	.	.	.	.	.	.	.	.	.
.	.	.	32f#/JJJ	.	32dd\JJJ	.	.	.	.	.	.	.	.	.	.	.	.	.	.	.	.	.	.	.
16A\LL	.	.	8e/	.	8cc#\	.	8AA/	-um	-nes	.	8A\	-um	-nes	.	8e\	-um	-nes	.	8cc#\	-ce	-nes	.	8a/	8ee\
16G\	.	.	.	.	.	.	.	.	.	.	.	.	.	.	.	.	.	.	.	.	.	.	.	.
!LO:TX:a:t=tutti	!	!	!	!	!	!	!	!	!	!	!	!	!	!	!	!	!	!	!	!	!	!	!	!
16F#\	.	.	8r	.	8r	.	8r	.	.	.	8r	.	.	.	8r	.	.	.	8r	.	.	.	8r	8r
16E\JJ	.	.	.	.	.	.	.	.	.	.	.	.	.	.	.	.	.	.	.	.	.	.	.	.
!	!	!	!LO:LB:g=original	!	!	!	!	!	!	!	!	!	!	!	!	!	!	!	!	!	!	!	!	!
=25	=25	=25	=25	=25	=25	=25	=25	=25	=25	=25	=25	=25	=25	=25	=25	=25	=25	=25	=25	=25	=25	=25	=25	=25
*	*	*	*^	*	*	*	*	*	*	*	*	*	*	*	*	*	*	*	*	*	*	*	*	*
*tremolo	*	*	*	*Xtremolo	*	*	*	*	*	*	*	*	*	*	*	*	*	*	*	*	*	*	*	*	*
!	!	!	!	!	!LO:DY:t=for&colon;	!	!LO:DY:t=for&colon;	!	!	!	!	!	!	!	!	!	!	!	!	!	!	!	!	!	!
8D\L	.	.	16a/LL	16f#\LL	f	8ff#\L	f	4D\	Do-	qui-	.	4d\	Ser-	qui-	.	4a\	Nunc	qui-	.	4ff#\	Se-	qui-	.	2d/	2dd\
.	.	.	16a/	16f#\	.	.	.	.	.	.	.	.	.	.	.	.	.	.	.	.	.	.	.	.	.
8D\	.	.	16a/	16f#\	.	32ff#\LL	.	.	.	.	.	.	.	.	.	.	.	.	.	.	.	.	.	.	.
.	.	.	.	.	.	32ee\	.	.	.	.	.	.	.	.	.	.	.	.	.	.	.	.	.	.	.
.	.	.	16a/JJ	16f#\JJ	.	32ff#\	.	.	.	.	.	.	.	.	.	.	.	.	.	.	.	.	.	.	.
.	.	.	.	.	.	32gg\JJJ	.	.	.	.	.	.	.	.	.	.	.	.	.	.	.	.	.	.	.
*	*	*	*tremolo	*tremolo	*	*	*	*	*	*	*	*	*	*	*	*	*	*	*	*	*	*	*	*	*
8D\	.	.	16a/LL	16f#\LL	.	8aa\L	.	4D\	.	-a	.	4d\	-vum	-a	.	4a\	di-	-a	.	4ff#\	.	-a	.	.	.
.	.	.	16a/	16f#\	.	.	.	.	.	.	.	.	.	.	.	.	.	.	.	.	.	.	.	.	.
8D\J	.	.	16a/	16f#\	.	8ff#\J	.	.	.	.	.	.	.	.	.	.	.	.	.	.	.	.	.	.	.
.	.	.	16a/JJ	16f#\JJ	.	.	.	.	.	.	.	.	.	.	.	.	.	.	.	.	.	.	.	.	.
!	!	!	!	!	!	!LO:LB:g=original	!	!	!	!	!	!	!	!	!	!	!LO:MO:mod=-mit-	!	!	!	!	!	!	!	!
8D\L	6 4	.	16b/LL	16g\LL	.	8gg\L	.	4D\	-mi-	fe-	.	4d\	tu-	fe-	.	4b\	-mi-	fe-	.	4gg\	-cun-	fe-	.	2d/	2dd\
.	.	.	16b/	16g\	.	.	.	.	.	.	.	.	.	.	.	.	.	.	.	.	.	.	.	.	.
8D\	.	.	16b/	16g\	.	32gg\LL	.	.	.	.	.	.	.	.	.	.	.	.	.	.	.	.	.	.	.
.	.	.	.	.	.	32ff#\	.	.	.	.	.	.	.	.	.	.	.	.	.	.	.	.	.	.	.
.	.	.	16b/JJ	16g\JJ	.	32gg\	.	.	.	.	.	.	.	.	.	.	.	.	.	.	.	.	.	.	.
.	.	.	.	.	.	32aa\JJJ	.	.	.	.	.	.	.	.	.	.	.	.	.	.	.	.	.	.	.
8D\	.	.	16b/LL	16g\LL	.	8bb\L	.	4D\	-ne	-cit	.	4d\	-um	-cit	.	4b\	-tis	-cit	.	4gg\	-dum	-cit	.	.	.
.	.	.	16b/	16g\	.	.	.	.	.	.	.	.	.	.	.	.	.	.	.	.	.	.	.	.	.
8D\J	.	.	16b/	16g\	.	8gg\J	.	.	.	.	.	.	.	.	.	.	.	.	.	.	.	.	.	.	.
.	.	.	16b/JJ	16g\JJ	.	.	.	.	.	.	.	.	.	.	.	.	.	.	.	.	.	.	.	.	.
=26	=26	=26	=26	=26	=26	=26	=26	=26	=26	=26	=26	=26	=26	=26	=26	=26	=26	=26	=26	=26	=26	=26	=26	=26	=26
*	*	*	*	*tremolo	*	*	*	*	*	*	*	*	*	*	*	*	*	*	*	*	*	*	*	*	*
8D\L	5 3	.	16a/LL	16f#\LL	.	8ff#\L	.	4D\	Se-	mi-	.	4d\	tu-	mi-	.	4a\	ser-	mi-	.	4ff#\	ver-	mi-	.	2d/	2dd\
.	.	.	16a/	16f#\	.	.	.	.	.	.	.	.	.	.	.	.	.	.	.	.	.	.	.	.	.
8D\	.	.	16a/	16f#\	.	32ff#\LL	.	.	.	.	.	.	.	.	.	.	.	.	.	.	.	.	.	.	.
.	.	.	.	.	.	32ee\	.	.	.	.	.	.	.	.	.	.	.	.	.	.	.	.	.	.	.
.	.	.	16a/JJ	16f#\JJ	.	32ff#\	.	.	.	.	.	.	.	.	.	.	.	.	.	.	.	.	.	.	.
.	.	.	.	.	.	32gg\JJJ	.	.	.	.	.	.	.	.	.	.	.	.	.	.	.	.	.	.	.
8D\	.	.	16a/LL	16f#\LL	.	8aa\L	.	4D\	-cun-	-hi	.	4A\	-um	-hi	.	4a\	-vum	-hi-	.	4ff#\	-bum	-hi-	.	.	.
.	.	.	16a/	16f#\	.	.	.	.	.	.	.	.	.	.	.	.	.	.	.	.	.	.	.	.	.
8D\J	.	.	16a/	16f#\	.	8ff#\J	.	.	.	.	.	.	.	.	.	.	.	.	.	.	.	.	.	.	.
.	.	.	16a/JJ	16f#\JJ	.	.	.	.	.	.	.	.	.	.	.	.	.	.	.	.	.	.	.	.	.
!	!	!	!	!	!	!	!	!	!	!	!	!LO:LB:g=original	!	!	!	!	!	!	!	!	!	!	!	!	!
8C#/L	6 5	.	16a/LL	16e\LL	.	8.ee\L	.	4C#/	-dum	ma-	.	4A\	in	ma-	.	4g\	Do-	-ma-	.	4ee\	se-	-ma-	.	2a/	2ee\
.	.	.	16a/	16e\	.	.	.	.	.	.	.	.	.	.	.	.	.	.	.	.	.	.	.	.	.
8C#/	.	.	16a/	16e\	.	.	.	.	.	.	.	.	.	.	.	.	.	.	.	.	.	.	.	.	.
.	.	.	16a/JJ	16e\JJ	.	16ff#\Jk	.	.	.	.	.	.	.	.	.	.	.	.	.	.	.	.	.	.	.
.	.	.	.	.	.	8qaa/	.	.	.	.	.	.	.	.	.	.	.	.	.	.	.	.	.	.	.
8C#/	.	.	16a/LL	16e\LL	.	8gg\L	.	8C#/	ver-	-gna	.	8A\	pa-	-gna	.	8g\	-mi-	-gna	.	8ee\	-cun-	-gna	.	.	.
.	.	.	16a/	16e\	.	.	.	.	.	.	.	.	.	.	.	.	.	.	.	.	.	.	.	.	.
8C#/J	.	.	16a/	16e\	.	16ff#\L	.	8C#/	-bum	qui	.	8A\	-ce	qui	.	8g\	-ne	qui	.	8ee\	-dum	qui	.	.	.
.	.	.	16a/JJ	16e\JJ	.	16ee\JJ	.	.	.	.	.	.	.	.	.	.	.	.	.	.	.	.	.	.	.
*Xtremolo	*	*	*Xtremolo	*Xtremolo	*	*	*	*	*	*	*	*	*	*	*	*	*	*	*	*	*	*	*	*	*
*	*	*	*v	*v	*	*	*	*	*	*	*	*	*	*	*	*	*	*	*	*	*	*	*	*	*
!LO:LB:g=original	!	!	!	!	!	!	!	!	!	!	!	!	!	!	!	!	!	!	!	!	!	!	!	!
=27	=27	=27	=27	=27	=27	=27	=27	=27	=27	=27	=27	=27	=27	=27	=27	=27	=27	=27	=27	=27	=27	=27	=27	=27
8D\L	.	.	8f#/L	.	8ff#\L	.	4D\	ver-	po-	.	4A\	Do-	po-	.	4f#\	ser-	po-	.	4dd\	ver-	po-	.	2dd\	2ff#\
8D\	6	.	(32f#/LL	.	32ff#\LL	.	.	.	.	.	.	.	.	.	.	.	.	.	.	.	.	.	.	.
.	.	.	32e/	.	32ee\	.	.	.	.	.	.	.	.	.	.	.	.	.	.	.	.	.	.	.
.	.	.	32f#/	.	32ff#\	.	.	.	.	.	.	.	.	.	.	.	.	.	.	.	.	.	.	.
.	.	.	32g/JJJ)	.	32gg\JJJ	.	.	.	.	.	.	.	.	.	.	.	.	.	.	.	.	.	.	.
8F#\	.	.	16a/LL	.	16aa\LL	.	4F#\	-bum	-tens	.	4A\	.	-tens	.	4f#\	-vum	-tens	.	4dd\	-bum	-tens	.	.	.
.	.	.	16f#/	.	16ff#\	.	.	.	.	.	.	.	.	.	.	.	.	.	.	.	.	.	.	.
8F#\J	.	.	16e/	.	16ee\	.	.	.	.	.	.	.	.	.	.	.	.	.	.	.	.	.	.	.
.	.	.	16d/JJ	.	16dd\JJ	.	.	.	.	.	.	.	.	.	.	.	.	.	.	.	.	.	.	.
8G\L	6	.	8e/L	.	8ee\L	.	4G\	tu-	eſt	.	4B\	-mi-	eſt	.	4g\	tu-	eſt	.	4ee\	tu-	eſt	.	4ee\	4gg\
8G\	.	.	(32e/LL	.	32ee\LL	.	.	.	.	.	.	.	.	.	.	.	.	.	.	.	.	.	.	.
.	.	.	32d/	.	32dd\	.	.	.	.	.	.	.	.	.	.	.	.	.	.	.	.	.	.	.
.	.	.	32e/	.	32ee\	.	.	.	.	.	.	.	.	.	.	.	.	.	.	.	.	.	.	.
.	.	.	32f#/JJJ)	.	32ff#\JJJ	.	.	.	.	.	.	.	.	.	.	.	.	.	.	.	.	.	.	.
!	!	!	!LO:LB:g=original	!	!LO:LB:g=original	!	!LO:LB:g=original	!	!	!	!	!	!	!	!	!	!	!	!	!	!	!	!	!
8A\	.	.	16g/LL	.	16gg\LL	.	4A\	-um	&	.	4A\	-ne	&	.	4e\	-um	&	.	4cc#\	-um	&	.	4a/	4ee\
.	.	.	16e/	.	16ee\	.	.	.	.	.	.	.	.	.	.	.	.	.	.	.	.	.	.	.
8A\J	.	.	16d/	.	16dd\	.	.	.	.	.	.	.	.	.	.	.	.	.	.	.	.	.	.	.
.	.	.	16c#/JJ	.	16cc#\JJ	.	.	.	.	.	.	.	.	.	.	.	.	.	.	.	.	.	.	.
!	!	!	!	!	!	!	!	!	!	!	!	!	!	!	!LO:LB:g=original	!	!	!	!LO:LB:g=original	!	!	!	!	!LO:LB:g=original
=28	=28	=28	=28	=28	=28	=28	=28	=28	=28	=28	=28	=28	=28	=28	=28	=28	=28	=28	=28	=28	=28	=28	=28	=28
8B\L	3	.	8d/L	.	8dd\L	.	8B\	Do-	San-	.	8B\	se-	San-	.	8f#\	Do-	San-	.	8dd\	ver-	San-	.	4dd\	4ff#\
8F#\	.	.	8a/J	.	16dd\L	.	8F#\	-mi-	-ctum	.	8A\	.	-ctum	.	8f#\	-mi-	-ctum	.	8dd\	-bum	-ctum	.	.	.
.	.	.	.	.	16ff#\JJ	.	.	.	.	.	.	.	.	.	.	.	.	.	.	.	.	.	.	.
*	*	*	*	*	*	*	*	*	*	*	*	*	*	*	*	*	*	*	*	*ij	*	*	*	*
8G\	6	.	16a/LL	.	16ff#\LL	.	8G\	-ne	no-	.	8B\	-cun-	no-	.	8g\	-ne	no-	.	8ee\	ver-	no-	.	8ee\L	8gg\L
.	.	.	16g/	.	16ee\	.	.	.	.	.	.	.	.	.	.	.	.	.	.	.	.	.	.	.
8G#X\J	5	.	16g/	.	16ee\	.	8G#X\	se-	-men	.	8B\	-dum	-men	.	8f#\	in	-men	.	8dd\	-bum	-men	.	8dd\J	8ff#\J
*	*	*	*	*	*	*	*	*	*	*	*	*	*	*	*	*	*	*	*	*Xij	*	*	*	*
.	.	.	16f#/JJ	.	16dd\JJ	.	.	.	.	.	.	.	.	.	.	.	.	.	.	.	.	.	.	.
*	*	*	*tuplet	*	*	*	*	*	*	*	*	*	*	*	*	*	*	*	*	*	*	*	*	*
!LO:TX:a:t=P:problem=mixed beam	!	!	!LO:TUP:b:problem=klamra łukowa	!	!	!	!	!	!	!	!	!	!	!	!	!	!	!	!	!	!	!	!LO:TX:a:t=P:problem=mixed beam	!
8A\L	4	.	24f#/LL	.	8dd\L	.	8A\	-cun-	e-	.	8A\	ver-	e-	.	8f#\	pa-	e-	.	8dd\	tu-	e-	.	8dd\L	8ff#\L
.	.	.	24e/	.	.	.	.	.	.	.	.	.	.	.	.	.	.	.	.	.	.	.	.	.
.	.	.	24f#/J	.	.	.	.	.	.	.	.	.	.	.	.	.	.	.	.	.	.	.	.	.
8AA/J	3	.	8e/J	.	8cc#\J	.	8A\	-dum	-jus	.	8A\	-bum	-jus	.	8e\	-ce	-jus	.	8cc#\	-um	-jus	.	8a/J	8ee\J
!	!	!	!LO:TUP:b:problem=klamra łukowa	!	!	!	!	!	!	!	!	!	!	!	!	!	!	!	!	!	!	!	!	!
8r	.	.	24A/LL	.	24a\LL	.	8r	.	.	.	8r	.	.	.	8r	.	.	.	8r	.	.	.	8r	8r
.	.	.	24c#/	.	24cc#\	.	.	.	.	.	.	.	.	.	.	.	.	.	.	.	.	.	.	.
.	.	.	24d/JJ	.	24dd\JJ	.	.	.	.	.	.	.	.	.	.	.	.	.	.	.	.	.	.	.
!	!	!	!LO:TUP:b:problem=klamra łukowa	!	!	!	!	!	!	!	!	!	!	!	!	!	!	!	!	!	!	!	!	!
8AA/	.	.	24e/LL	.	24ee\LL	.	8C#/	ver-	&	.	8A\	tu-	&	.	8g\	se-	&	.	8ee\	in	&	.	8a/	8ee\
.	.	.	24f#/	.	24ff#\	.	.	.	.	.	.	.	.	.	.	.	.	.	.	.	.	.	.	.
.	.	.	24g/JJ	.	24gg\JJ	.	.	.	.	.	.	.	.	.	.	.	.	.	.	.	.	.	.	.
=29	=29	=29	=29	=29	=29	=29	=29	=29	=29	=29	=29	=29	=29	=29	=29	=29	=29	=29	=29	=29	=29	=29	=29	=29
16D\LL	.	.	4f#/	.	4ff#\	.	4D\	.	San-	a-	4A\	.	San-	.	4f#\	-cun-	San-	.	4dd\	pa-	San-	.	2dd\	2ff#\
16C#\	.	.	.	.	.	.	.	.	.	.	.	.	.	.	.	.	.	.	.	.	.	.	.	.
16D\	.	.	.	.	.	.	.	.	.	.	.	.	.	.	.	.	.	.	.	.	.	.	.	.
16E\JJ	.	.	.	.	.	.	.	.	.	.	.	.	.	.	.	.	.	.	.	.	.	.	.	.
16F#\LL	.	.	8r	.	8r	.	4F#\	-bum	-ctum	-men	4A\	-um	-ctum	.	4f#\	-dum	-ctum	.	4dd\	-ce	-ctum	.	.	.
16E\	.	.	.	.	.	.	.	.	.	.	.	.	.	.	.	.	.	.	.	.	.	.	.	.
16F#\	.	.	8d/	.	8dd\	.	.	.	.	.	.	.	.	.	.	.	.	.	.	.	.	.	.	.
16G\JJ	.	.	.	.	.	.	.	.	.	.	.	.	.	.	.	.	.	.	.	.	.	.	.	.
!	!	!	!	!	!	!	!	!	!	!	!LO:LB:g=original	!	!	!	!	!	!	!	!	!	!	!	!	!
4A\	.	.	8c#/L	.	8cc#\L	.	4A\	tu-	no-	a-	4A\	se-	no-	A-	4e\	ver-	no-	A-	4cc#\	in	no-	.	2a/	2ee\
.	.	.	32c#/LL	.	32cc#\LL	.	.	.	.	.	.	.	.	.	.	.	.	.	.	.	.	.	.	.
.	.	.	32d/	.	32dd\	.	.	.	.	.	.	.	.	.	.	.	.	.	.	.	.	.	.	.
.	.	.	32e/	.	32ee\	.	.	.	.	.	.	.	.	.	.	.	.	.	.	.	.	.	.	.
.	.	.	32f#/JJJ	.	32ff#\JJJ	.	.	.	.	.	.	.	.	.	.	.	.	.	.	.	.	.	.	.
8r	.	.	16g/LL	.	16gg\LL	.	4C#/	-um	-men	-men	4A\	.	-men	-men	4g\	-bum	-men	-men	4ee\	.	-men	.	.	.
.	.	.	16e/	.	16ee\	.	.	.	.	.	.	.	.	.	.	.	.	.	.	.	.	.	.	.
8C#/	6	.	16a/	.	16aa\	.	.	.	.	.	.	.	.	.	.	.	.	.	.	.	.	.	.	.
.	.	.	16g/JJ	.	16gg\JJ	.	.	.	.	.	.	.	.	.	.	.	.	.	.	.	.	.	.	.
!	!	!	!LO:LB:g=original	!	!LO:LB:g=original	!	!LO:PB:g=original	!	!	!	!	!	!	!	!	!	!	!	!	!	!	!	!	!
=30	=30	=30	=30	=30	=30	=30	=30	=30	=30	=30	=30	=30	=30	=30	=30	=30	=30	=30	=30	=30	=30	=30	=30	=30
*	*	*	*	*	*	*	*	*	*	*ij	*	*	*	*ij	*	*ij	*ij	*	*	*	*ij	*	*	*
16D\LL	.	.	4f#/	.	4ff#\	.	4D\	in	San-	a-	4A\	-cun-	San-	A-	4f#\	ver-	San-	a-	4dd\	pa-	San-	a-	2dd\	2ff#\
16C#\	.	.	.	.	.	.	.	.	.	.	.	.	.	.	.	.	.	.	.	.	.	.	.	.
16D\	.	.	.	.	.	.	.	.	.	.	.	.	.	.	.	.	.	.	.	.	.	.	.	.
16E\JJ	.	.	.	.	.	.	.	.	.	.	.	.	.	.	.	.	.	.	.	.	.	.	.	.
16F#\LL	.	.	8r	.	8r	.	4F#\	.	-ctum	-men	4A\	-dum	-ctum	-men	4f#\	-bum	-ctum	-men	4dd\	-ce	-ctum	-men	.	.
*	*	*	*	*	*	*	*	*	*	*	*	*	*	*	*	*Xij	*	*	*	*	*	*	*	*
16E\	.	.	.	.	.	.	.	.	.	.	.	.	.	.	.	.	.	.	.	.	.	.	.	.
16F#\	.	.	8d/	.	8dd\	.	.	.	.	.	.	.	.	.	.	.	.	.	.	.	.	.	.	.
16G\JJ	.	.	.	.	.	.	.	.	.	.	.	.	.	.	.	.	.	.	.	.	.	.	.	.
4A\	.	.	8c#/L	.	8cc#\L	.	4A\	pa-	no-	a-	4A\	ver-	No-	A-	4e\	tu-	no-	A-	4cc#\	in	no-	a-	2a/	2ee\
.	.	.	32c#/LL	.	32cc#\LL	.	.	.	.	.	.	.	.	.	.	.	.	.	.	.	.	.	.	.
.	.	.	32d/	.	32dd\	.	.	.	.	.	.	.	.	.	.	.	.	.	.	.	.	.	.	.
.	.	.	32e/	.	32ee\	.	.	.	.	.	.	.	.	.	.	.	.	.	.	.	.	.	.	.
.	.	.	32f#/JJJ	.	32ff#\JJJ	.	.	.	.	.	.	.	.	.	.	.	.	.	.	.	.	.	.	.
!LO:LB:g=original	!	!	!	!	!	!	!	!	!	!	!	!	!	!	!	!	!	!	!	!	!	!	!	!
8r	.	.	16g/LL	.	16gg\LL	.	4C#/	-ce	-men	-men	4A\	-bum	-men	-men	4g\	-um	-men	-men	4ee\	.	-men	-men	.	.
*	*	*	*	*	*	*	*	*	*	*Xij	*	*	*	*	*	*	*	*	*	*	*	*	*	*
.	.	.	16e/	.	16ee\	.	.	.	.	.	.	.	.	.	.	.	.	.	.	.	.	.	.	.
8c#\	6	.	16a/	.	16aa\	.	.	.	.	.	.	.	.	.	.	.	.	.	.	.	.	.	.	.
.	.	.	16g/JJ	.	16gg\JJ	.	.	.	.	.	.	.	.	.	.	.	.	.	.	.	.	.	.	.
!	!	!	!	!	!	!	!	!	!	!	!	!	!	!	!LO:LB:g=original	!	!	!	!LO:LB:g=original	!	!	!	!	!
=31	=31	=31	=31	=31	=31	=31	=31	=31	=31	=31	=31	=31	=31	=31	=31	=31	=31	=31	=31	=31	=31	=31	=31	=31
*	*	*	*	*	*	*	*	*	*ij	*	*	*	*ij	*	*	*	*	*	*	*	*	*	*	*
8d\L	3_	.	8f#/L	.	8ff#\L	.	4D\	in	San-	a-	4A\	tu-	San-	a-	4f#\	in-	San-	a-	4dd\	pa-	San-	a-	1dd	1ff#
16f#\L	.	.	16a/L	.	16aa\L	.	.	.	.	.	.	.	.	.	.	.	.	.	.	.	.	.	.	.
16e\JJ	.	.	16g/JJ	.	16gg\JJ	.	.	.	.	.	.	.	.	.	.	.	.	.	.	.	.	.	.	.
16d\LL	.	.	16f#/LL	.	16ff#\LL	.	4D\	.	-ctum	-men	4A\	-um	-ctum	-men	4f#\	.	-ctum	-men	4dd\	-ce	-ctum	-men	.	.
16c#\	.	.	16e/	.	16ee\	.	.	.	.	.	.	.	.	.	.	.	.	.	.	.	.	.	.	.
16B\	.	.	16d/	.	16dd\	.	.	.	.	.	.	.	.	.	.	.	.	.	.	.	.	.	.	.
16A\JJ	.	.	16c#/JJ	.	16cc#\JJ	.	.	.	.	.	.	.	.	.	.	.	.	.	.	.	.	.	.	.
*	*	*	*	*	*	*	*	*	*	*ij	*	*	*	*ij	*	*	*	*	*	*	*	*	*	*
16B\LL	.	.	16d/LL	.	16dd\LL	.	4D\	pa-	no-	a-	4A\	in	No-	a-	4f#\	-pa-	no-	A-	4dd\	in	no-	A-	.	.
16c#\	.	.	16e/	.	16ee\	.	.	.	.	.	.	.	.	.	.	.	.	.	.	.	.	.	.	.
16d\	.	.	16f#/	.	16ff#\	.	.	.	.	.	.	.	.	.	.	.	.	.	.	.	.	.	.	.
16c#\JJ	.	.	16e/JJ	.	16ee\JJ	.	.	.	.	.	.	.	.	.	.	.	.	.	.	.	.	.	.	.
16B\LL	.	.	16d/LL	.	16dd\LL	.	4F#\	-ce	-men	-men	4A\	.	-men	-men	4f#\	-ce	-men	-men	4dd\	.	-men	-men	.	.
*	*	*	*	*	*	*	*	*	*Xij	*Xij	*	*	*Xij	*Xij	*	*	*Xij	*	*	*	*Xij	*	*	*
16A\	.	.	16c#/	.	16cc#\	.	.	.	.	.	.	.	.	.	.	.	.	.	.	.	.	.	.	.
16G\	.	.	16B/	.	16b\	.	.	.	.	.	.	.	.	.	.	.	.	.	.	.	.	.	.	.
16F#\JJ	.	.	16A/JJ	.	16a\JJ	.	.	.	.	.	.	.	.	.	.	.	.	.	.	.	.	.	.	.
=32	=32	=32	=32	=32	=32	=32	=32	=32	=32	=32	=32	=32	=32	=32	=32	=32	=32	=32	=32	=32	=32	=32	=32	=32
!LO:TX:a:t=P:problem=mixed beam	!	!	!	!	!	!	!	!	!	!	!	!	!	!	!	!	!	!	!	!	!	!	!	!
8G\L	6	.	8B/L	.	16b\LL	.	4G\	in	e-	a-	(4B\	pa-	e-	a-	4g\	in	e-	a-	4ee\	pa-	e-	a-	4ee\	4gg\
.	.	.	.	.	16ee\	.	.	.	.	.	.	.	.	.	.	.	.	.	.	.	.	.	.	.
8G\	.	.	8g/	.	16gg\	.	.	.	.	.	.	.	.	.	.	.	.	.	.	.	.	.	.	.
.	.	.	.	.	16ee\JJ	.	.	.	.	.	.	.	.	.	.	.	.	.	.	.	.	.	.	.
!	!	!	!	!	!LO:LB:g=original	!	!LO:TX:a:t=P:problem=mixed beam	!	!	!	!	!	!	!	!	!	!	!	!	!	!	!	!	!
8A\	4	.	8f#/	.	16ee\LL	.	8A\L	pa-	.	.	4A\)	.	.	.	8f#\L	pa-	.	.	8dd\L	.	.	.	8dd\L	8ff#\L
.	.	.	.	.	16dd\	.	.	.	.	.	.	.	.	.	.	.	.	.	.	.	.	.	.	.
8AA/J	3	.	8e/J	.	16dd\	.	8AA/J	.	.	.	.	.	.	.	8e\J	.	.	.	8cc#\J	.	.	.	8a\J	8ee\J
.	.	.	.	.	16cc#\JJ	.	.	.	.	.	.	.	.	.	.	.	.	.	.	.	.	.	.	.
4D\	.	.	4f#/	.	4dd\	.	4D\	-ce	-jus	-men	4A\	-ce	-jus	-men	4f#\	-ce	-jus	-men	4dd\	-ce	-jus	-men	4f#/	4dd\
!LO:TX:b:i:t=Volti Solo	!	!	!	!	!LO:TX:b:i:t=Volti Solo	!	!	!	!	!	!	!	!	!	!	!	!	!	!	!	!	!	!	!
4r	.	.	4r	.	4r	.	4r	.	.	.	4r	.	.	.	4r	.	.	.	4r	.	.	.	4r	4r
==	==	==	==	==	==	==	==	==	==	==	==	==	==	==	==	==	==	==	==	==	==	==	==	==
*-	*-	*-	*-	*-	*-	*-	*-	*-	*-	*-	*-	*-	*-	*-	*-	*-	*-	*-	*-	*-	*-	*-	*-	*-
!!!system-decoration: [(g1)][(g2)][(g3)]s9
!!!ENC: Anastazja Marusiak
!!!END: 2020-07-15
!!!ENC: Marta Lawrence
!!!END: 2021-01-13
